; generated by PrusaSlicer 2.9.0 on 2025-01-20 at 01:02:32 UTC

; 

; external perimeters extrusion width = 0.42mm
; perimeters extrusion width = 0.44mm
; infill extrusion width = 0.44mm
; solid infill extrusion width = 0.44mm
; top infill extrusion width = 0.40mm
; support material extrusion width = 0.36mm
; first layer extrusion width = 0.42mm



; Pre-Processed for Cancel-Object support by preprocess_cancellation v0.2.0
; 1 known objects
EXCLUDE_OBJECT_DEFINE NAME=result_2_obj_id_0_copy_0 CENTER=118.300,121.641 POLYGON=[[76.715,76.908],[76.715,157.977],[158.123,157.977],[158.123,76.908]]
M73 P0 R103

; printing object result (2).obj id:0 copy 0
EXCLUDE_OBJECT_START NAME=result_2_obj_id_0_copy_0
; stop printing object result (2).obj id:0 copy 0
EXCLUDE_OBJECT_END NAME=result_2_obj_id_0_copy_0

;TYPE:Custom
START_PRINT EXTRUDER_TEMP=250 BED_TEMP=60
G21 ; set units to millimeters
G90 ; use absolute coordinates
M83 ; use relative distances for extrusion
; Filament gcode
M107
;LAYER_CHANGE
;Z:0.2
;HEIGHT:0.2
G1 E-5 F3600
G1 Z.2 F9000
G1 X102.062 Y75.128
G1 Z.2
G1 E5 F2400
M204 S500
;TYPE:Skirt/Brim
;WIDTH:0.42
G1 F1200
G1 X103.191 Y73.771 E.05535
G1 X104.798 Y73.043 E.05532
G1 X105.872 Y72.976 E.03374
G1 X146.611 Y76.003 E1.28086
G1 X147.368 Y76.129 E.02406
G1 X148.289 Y76.447 E.03055
G1 X149.309 Y77.125 E.0384
G1 X150.1 Y78.053 E.03823
G1 X150.617 Y79.083 E.03613
G1 X161.396 Y118.17 E1.27129
G1 X162.066 Y123.738 E.17584
G1 X162.06 Y125.856 E.06641
G1 X161.839 Y127.146 E.04104
G1 X160.936 Y129.692 E.0847
G1 X159.451 Y133.063 E.1155
G1 X158.67 Y134.466 E.05035
G1 X158.112 Y135.215 E.02929
G1 X157.245 Y136.104 E.03894
G1 X144.049 Y147.658 E.54993
G1 X143.448 Y148.092 E.02324
G1 X142.162 Y148.812 E.04621
G1 X141.528 Y149.077 E.02155
G1 X101.981 Y161.623 E1.30087
G1 X101.243 Y161.807 E.02385
G1 X100.144 Y161.916 E.03463
G1 X97.778 Y161.806 E.07426
G1 X79.263 Y159.119 E.58661
G1 X78.262 Y158.892 E.03218
G1 X76.985 Y158.397 E.04294
G1 X76.342 Y158.056 E.02282
G1 X75.288 Y157.243 E.04174
G1 X74.696 Y156.601 E.02738
G1 X73.81 Y155.224 E.05134
G1 X73.491 Y154.457 E.02605
G1 X73.176 Y153.29 E.0379
G1 X73.062 Y152.475 E.0258
G1 X72.775 Y144.011 E.26554
G1 X72.968 Y142.653 E.04301
G1 X82.118 Y114.65 E.9237
G1 X102.035 Y75.181 E1.38616
G1 X102.035 Y75.181 F9000
G1 X102.371 Y75.351
G1 F1200
G1 X102.398 Y75.298 E.00186
G1 X103.486 Y74.021 E.0526
G1 X105.844 Y73.352 E.07685
G1 X146.583 Y76.379 E1.28086
G1 X147.287 Y76.497 E.02238
G1 X148.125 Y76.787 E.0278
G1 X149.055 Y77.403 E.03498
G1 X149.79 Y78.267 E.03557
G1 X150.265 Y79.218 E.03333
G1 X161.022 Y118.217 E1.26845
G1 X161.689 Y123.737 E.17433
G1 X161.683 Y125.855 E.06641
G1 X161.483 Y127.021 E.03709
G1 X160.591 Y129.54 E.08379
G1 X159.106 Y132.911 E.1155
G1 X158.343 Y134.278 E.04909
G1 X157.838 Y134.956 E.02651
G1 X156.997 Y135.821 E.03783
G1 X143.801 Y147.374 E.54991
G1 X143.257 Y147.767 E.02104
G1 X141.987 Y148.478 E.04564
G1 X141.414 Y148.717 E.01947
G1 X101.877 Y161.261 E1.30055
G1 X101.154 Y161.44 E.02335
G1 X100.16 Y161.539 E.03132
G1 X97.823 Y161.432 E.07335
G1 X79.318 Y158.746 E.58629
G1 X78.351 Y158.526 E.03109
G1 X77.162 Y158.064 E.04
G1 X76.518 Y157.723 E.02285
G1 X75.565 Y156.988 E.03774
G1 X74.973 Y156.345 E.0274
G1 X74.141 Y155.043 E.04845
G1 X73.852 Y154.349 E.02357
G1 X73.542 Y153.199 E.03734
G1 X73.439 Y152.462 E.02333
G1 X73.152 Y143.999 E.2655
G1 X73.326 Y142.77 E.03892
G1 X82.476 Y114.768 E.92367
G1 X102.344 Y75.405 E1.3825
G1 X102.344 Y75.405 F9000
G1 X102.681 Y75.575
G1 F1200
G1 X102.735 Y75.468 E.00376
G1 X103.779 Y74.276 E.04968
G1 X105.816 Y73.728 E.06614
G1 X146.555 Y76.756 E1.28087
G1 X147.207 Y76.866 E.02073
G1 X147.96 Y77.126 E.02498
G1 X148.8 Y77.681 E.03157
G1 X149.48 Y78.482 E.03294
G1 X149.913 Y79.354 E.03053
G1 X160.648 Y118.264 E1.26558
G1 X161.312 Y123.736 E.17283
G1 X161.306 Y125.854 E.06641
G1 X161.127 Y126.897 E.03318
G1 X160.246 Y129.388 E.08284
G1 X158.761 Y132.758 E.11547
G1 X158.016 Y134.09 E.04785
G1 X157.565 Y134.696 E.02369
G1 X156.749 Y135.537 E.03674
G1 X143.552 Y147.09 E.54994
G1 X141.812 Y148.144 E.06379
G1 X103.525 Y160.394 E1.26041
G1 X101.773 Y160.898 E.05716
G1 X101.064 Y161.074 E.0229
G1 X100.175 Y161.162 E.02801
G1 X97.867 Y161.057 E.07244
G1 X79.373 Y158.373 E.58594
G1 X78.441 Y158.159 E.02998
G1 X77.627 Y157.865 E.02714
G1 X76.695 Y157.39 E.0328
G1 X75.843 Y156.733 E.03373
G1 X75.251 Y156.09 E.0274
G1 X74.472 Y154.862 E.0456
G1 X74.213 Y154.242 E.02107
G1 X73.908 Y153.108 E.03682
G1 X73.816 Y152.449 E.02086
G1 X73.529 Y143.986 E.2655
G1 X73.685 Y142.887 E.0348
G1 X82.835 Y114.885 E.92367
G1 X102.654 Y75.628 E1.37884
G1 E-3.5 F3600
;WIPE_START
G1 F7200
G1 X102.681 Y75.575 E-.02825
G1 X102.735 Y75.468 E-.05693
G1 X103.779 Y74.276 E-.75266
G1 X105.125 Y73.914 E-.66216
;WIPE_END
; printing object result (2).obj id:0 copy 0
EXCLUDE_OBJECT_START NAME=result_2_obj_id_0_copy_0
G1 X88.764 Y126.856 F9000
G1 E5 F2400
;TYPE:Support material
G1 F1200
G1 X89.142 Y126.824 E.01189
G1 X90.303 Y126.94 E.03658
G1 X91.79 Y127.441 E.0492
G1 X92.648 Y128.07 E.03336
G1 X93.097 Y128.692 E.02405
G1 X93.474 Y128.691 E.01182
G1 X95.91 Y131.123 E.10793
G1 X95.914 Y134.634 E.11009
G1 X95.271 Y135.279 E.02856
G1 X96.454 Y136.461 E.05243
G1 X96.598 Y136.806 E.01172
G1 X97.461 Y137.197 E.02971
G1 X98.971 Y136.485 E.05234
G1 X100.629 Y136.484 E.05199
G1 X101.369 Y136.721 E.02436
G1 X102.054 Y137.091 E.02441
G1 X102.454 Y137.344 E.01484
G1 X103.516 Y138.261 E.04399
G1 X103.697 Y138.998 E.02379
G1 X104.076 Y139.905 E.03082
G1 X104.069 Y141.502 E.05007
G1 X104.631 Y142.254 E.02944
G1 X104.614 Y144.498 E.07036
G1 X104.448 Y145.876 E.04352
G1 X103.748 Y147.346 E.05105
G1 X102.99 Y148.246 E.03689
G1 X102.086 Y149.129 E.03962
G1 X103.527 Y149.614 E.04767
G1 X103.793 Y152.558 E.09268
G1 X103.913 Y152.914 E.01178
G1 X103.857 Y153.561 E.02036
G1 X103.931 Y154.379 E.02575
G1 X103.649 Y155.468 E.03527
G1 X103.423 Y156.053 E.01966
G1 X102.557 Y157.356 E.04905
G1 X100.307 Y157.977 E.07318
G1 X99.821 Y157.905 E.0154
G1 X98.243 Y157.891 E.04948
G1 X96.906 Y157.732 E.04222
G1 X95.73 Y156.312 E.05781
G1 X94.17 Y156.309 E.04891
G1 X93.083 Y155.822 E.03735
G1 X92.725 Y156.08 E.01384
G1 X92.194 Y156.265 E.01763
G1 X91.285 Y156.421 E.02892
G1 X88.252 Y156.309 E.09516
G1 X87.066 Y155.91 E.03923
G1 X86.313 Y155.013 E.03672
G1 X85.81 Y154.156 E.03116
G1 X85.778 Y153.737 E.01318
G1 X85.084 Y153.738 E.02176
G1 X84.649 Y153.539 E.015
G1 X84.35 Y154.645 E.03592
G1 X82.049 Y155.24 E.07452
G1 X79.838 Y155.218 E.06933
G1 X79.196 Y155.062 E.02072
G1 X78.188 Y154.572 E.03514
G1 X77.596 Y153.929 E.0274
G1 X77.27 Y153.333 E.0213
G1 X77.003 Y152.341 E.03221
G1 X77.04 Y150.262 E.0652
G1 X77.261 Y148.737 E.04831
G1 X77.025 Y147.038 E.05378
G1 X77.144 Y146.195 E.02669
G1 X77.062 Y145.99 E.00692
G1 X77.054 Y144.802 E.03725
G1 X76.715 Y143.878 E.03086
G1 X77.71 Y141.422 E.08309
G1 X78.951 Y141.088 E.0403
G1 X79.457 Y140.774 E.01867
G1 X80.343 Y140.74 E.0278
G1 X81.091 Y140.844 E.02368
G1 X82.696 Y140.897 E.05035
G1 X83.775 Y141.812 E.04436
G1 X83.962 Y142.083 E.01032
G1 X84.351 Y142.244 E.0132
G1 X84.804 Y141.345 E.03156
G1 X85.785 Y141.101 E.0317
G1 X85.757 Y129.844 E.35296
G1 X85.978 Y126.549 E.10354
G1 X88.708 Y126.85 E.08612
G1 X88.708 Y126.85 F9000
G1 X104.094 Y146.267
G1 F1200
G1 X104.094 Y142.102 E.13059
G1 X103.729 Y141.615 E.01908
G1 X103.736 Y139.969 E.05161
G1 X103.675 Y139.813 E.00525
G1 X103.675 Y146.649 E.21434
G1 X103.457 Y147.166 E.01759
G1 X103.256 Y147.405 E.00979
G1 X103.256 Y138.624 E.27532
G1 X103.212 Y138.447 E.00572
G1 X102.837 Y138.123 E.01554
G1 X102.837 Y147.902 E.30661
G1 X102.418 Y148.306 E.01825
G1 X102.418 Y137.762 E.3306
G1 X101.999 Y137.457 E.01625
G1 X101.999 Y148.976 E.36117
G1 X101.999 Y148.976 F9000
G1 X103.256 Y155.998
G1 F1200
G1 X103.256 Y150.239 E.18057
G1 X103.214 Y149.867 E.01174
G1 X102.837 Y149.74 E.01247
G1 X102.837 Y156.322 E.20637
G1 X102.418 Y156.953 E.02375
G1 X102.418 Y149.599 E.23058
G1 X101.999 Y149.457 E.01387
G1 X101.999 Y157.163 E.24162
G1 X101.58 Y157.283 E.01367
G1 X101.58 Y137.234 E.62862
G1 X101.161 Y137.011 E.01488
G1 X101.161 Y157.404 E.63941
G1 X100.742 Y157.521 E.01364
M73 P0 R102
G1 X100.742 Y136.876 E.64731
G1 X100.323 Y136.823 E.01324
G1 X100.323 Y157.623 E.65217
G1 X99.904 Y157.574 E.01323
G1 X99.904 Y136.824 E.6506
G1 X99.485 Y136.824 E.01314
G1 X99.485 Y157.559 E.65013
G1 X99.066 Y157.538 E.01315
M73 P1 R102
G1 X99.039 Y136.825 E.64944
G1 X98.647 Y136.988 E.01331
G1 X98.647 Y157.549 E.64468
G1 X98.228 Y157.546 E.01314
G1 X98.228 Y137.169 E.63891
G1 X97.809 Y137.37 E.01457
G1 X97.809 Y157.492 E.63091
G1 X97.39 Y157.445 E.01322
G1 X97.39 Y137.535 E.62426
G1 X96.971 Y137.362 E.01421
G1 X96.971 Y157.284 E.62464
G1 X96.552 Y156.791 E.02029
G1 X96.552 Y137.161 E.61548
G1 X96.339 Y137.066 E.00731
G1 X96.133 Y136.619 E.01543
G1 X96.133 Y156.326 E.6179
G1 X95.94 Y155.973 E.01261
G1 X95.714 Y155.973 E.00709
G1 X95.714 Y136.201 E.61994
G1 X95.295 Y135.783 E.01856
G1 X95.295 Y155.972 E.63301
G1 X94.876 Y155.972 E.01314
G1 X94.876 Y130.57 E.79646
G1 X95.295 Y130.988 E.01856
G1 X95.295 Y135.015 E.12626
G1 X95.295 Y135.015 F9000
G1 X94.457 Y156.14
G1 F1200
G1 X94.457 Y130.152 E.81484
G1 X94.038 Y129.734 E.01856
G1 X94.038 Y155.878 E.81973
G1 X93.619 Y155.69 E.0144
G1 X93.619 Y129.316 E.82694
G1 X93.334 Y129.031 E.01264
G1 X93.2 Y129.031 E.0042
G1 X93.2 Y155.502 E.82998
G1 X93.044 Y155.432 E.00536
G1 X92.781 Y155.621 E.01015
G1 X92.781 Y128.834 E.83989
G1 X92.362 Y128.282 E.02173
G1 X92.362 Y155.817 E.86334
G1 X91.943 Y155.952 E.0138
G1 X91.943 Y127.974 E.87723
G1 X91.63 Y127.745 E.01216
G1 X91.524 Y127.708 E.00352
G1 X91.524 Y156.016 E.88758
G1 X91.105 Y156.08 E.01329
G1 X91.105 Y127.564 E.8941
G1 X90.686 Y127.425 E.01384
G1 X90.686 Y156.076 E.89833
G1 X90.267 Y156.071 E.01314
G1 X90.267 Y127.286 E.90253
G1 X89.848 Y127.236 E.01323
G1 X89.848 Y156.064 E.90388
G1 X89.429 Y156.056 E.01314
G1 X89.429 Y127.194 E.90495
G1 X89.01 Y127.176 E.01315
G1 X89.01 Y156.043 E.9051
G1 X88.591 Y156.006 E.01319
G1 X88.591 Y127.179 E.90385
G1 X88.172 Y127.133 E.01322
G1 X88.172 Y155.926 E.90278
G1 X87.753 Y155.786 E.01385
G1 X87.753 Y127.086 E.89987
G1 X87.334 Y127.04 E.01322
G1 X87.334 Y155.643 E.89683
G1 X86.915 Y155.203 E.01905
G1 X86.915 Y126.994 E.88447
G1 X86.497 Y126.947 E.01319
G1 X86.497 Y154.655 E.86876
G1 X86.142 Y154.051 E.02197
G1 X86.078 Y153.398 E.02057
G1 X86.078 Y141.378 E.37688
G1 X85.659 Y141.482 E.01354
G1 X85.659 Y153.398 E.37362
G1 X85.24 Y153.399 E.01314
G1 X85.24 Y141.586 E.37039
G1 X85.037 Y141.637 E.00656
G1 X84.821 Y142.067 E.01509
G1 X84.821 Y153.244 E.35045
G1 X84.425 Y153.063 E.01365
G1 X84.402 Y153.151 E.00285
G1 X84.402 Y142.633 E.32978
G1 X83.983 Y142.459 E.01423
G1 X83.983 Y154.392 E.37415
G1 X83.564 Y154.505 E.01361
G1 X83.524 Y142.046 E.39065
G1 X83.145 Y141.736 E.01535
G1 X83.145 Y154.617 E.40387
G1 X82.726 Y154.73 E.01361
G1 X82.726 Y141.373 E.4188
G1 X82.563 Y141.232 E.00676
G1 X82.307 Y141.221 E.00803
G1 X82.307 Y154.833 E.42679
G1 X81.888 Y154.903 E.01332
G1 X81.888 Y141.205 E.42949
G1 X81.469 Y141.192 E.01314
G1 X81.469 Y154.907 E.43002
G1 X81.05 Y154.904 E.01314
G1 X81.05 Y141.182 E.43024
G1 X80.631 Y141.091 E.01344
G1 X80.631 Y154.901 E.433
G1 X80.212 Y154.892 E.01314
G1 X80.212 Y141.084 E.43294
G1 X79.793 Y141.101 E.01315
G1 X79.793 Y154.856 E.43128
G1 X79.374 Y154.754 E.01352
G1 X79.374 Y141.225 E.42419
G1 X78.955 Y141.438 E.01474
G1 X78.955 Y154.594 E.4125
G1 X78.536 Y154.372 E.01487
G1 X78.536 Y141.551 E.40199
G1 X78.117 Y141.664 E.01361
G1 X78.117 Y153.994 E.3866
G1 X77.698 Y153.39 E.02305
G1 X77.698 Y142.355 E.34599
G1 X77.279 Y143.39 E.03501
M73 P1 R101
G1 X77.279 Y146.076 E.08422
G1 E-3.5 F3600
;WIPE_START
G1 F7200
G1 X77.279 Y143.39 E-1.27585
G1 X77.456 Y142.953 E-.22415
;WIPE_END
G1 X104.873 Y126.534 F9000
G1 E5 F2400
G1 F1200
G1 X105.896 Y126.551 E.03208
G1 X105.855 Y133.929 E.23134
G1 X105.957 Y134.268 E.0111
G1 X106.256 Y134.505 E.01196
G1 X106.976 Y134.577 E.02269
G1 X106.981 Y134.702 E.00392
G1 X106.224 Y134.991 E.02541
G1 X103.22 Y134.972 E.09419
G1 X102.17 Y135.589 E.03819
G1 X99.623 Y135.664 E.07989
G1 X98.508 Y135.204 E.03782
G1 X97.137 Y133.836 E.06073
G1 X96.532 Y132.381 E.04941
G1 X96.53 Y130.722 E.05202
G1 X97.353 Y128.897 E.06277
G1 X98.336 Y127.911 E.04365
G1 X99.077 Y127.569 E.02559
G1 X99.336 Y127.309 E.01151
G1 X100.758 Y126.684 E.0487
G1 X103.263 Y126.681 E.07854
G1 X104.022 Y126.427 E.0251
G1 X104.817 Y126.527 E.02512
G1 X104.817 Y126.527 F9000
G1 X105.769 Y134.811
G1 F1200
G1 X105.769 Y134.553 E.00809
G1 X105.666 Y134.469 E.00417
G1 X105.503 Y133.755 E.02296
G1 X105.557 Y126.862 E.21613
G1 X105.35 Y126.845 E.00651
G1 X105.35 Y134.632 E.24416
G1 X104.931 Y134.638 E.01314
G1 X104.931 Y126.868 E.24362
G1 X104.513 Y126.83 E.01316
G1 X104.513 Y134.622 E.24431
G1 X104.094 Y134.623 E.01314
G1 X104.094 Y126.778 E.24597
G1 X103.675 Y126.901 E.01369
G1 X103.675 Y134.622 E.24209
G1 X103.256 Y134.63 E.01314
G1 X103.256 Y127.02 E.23861
G1 X102.837 Y127.02 E.01314
G1 X102.837 Y134.856 E.24569
G1 X102.418 Y135.077 E.01485
G1 X102.418 Y127.021 E.25259
G1 X101.999 Y127.021 E.01314
M73 P2 R101
G1 X101.999 Y135.258 E.25827
G1 X101.58 Y135.277 E.01315
G1 X101.58 Y127.022 E.25883
G1 X101.161 Y127.023 E.01314
G1 X101.161 Y135.297 E.25943
G1 X100.742 Y135.317 E.01315
G1 X100.742 Y127.059 E.25892
G1 X100.323 Y127.233 E.01423
G1 X100.323 Y135.324 E.25369
G1 X99.904 Y135.325 E.01314
G1 X99.904 Y127.441 E.2472
G1 X99.485 Y127.641 E.01456
G1 X99.485 Y135.24 E.23826
G1 X99.066 Y135.067 E.01421
G1 X99.066 Y127.941 E.22343
G1 X98.647 Y128.149 E.01467
G1 X98.647 Y134.864 E.21054
G1 X98.228 Y134.445 E.01858
G1 X98.228 Y128.5 E.1864
G1 X97.809 Y128.92 E.0186
G1 X97.809 Y134.027 E.16013
G1 X97.39 Y133.561 E.01965
G1 X97.39 Y129.613 E.12379
G1 X96.971 Y130.544 E.03201
G1 X96.971 Y132.995 E.07685
G1 E-3.5 F3600
;WIPE_START
G1 F7200
G1 X96.971 Y130.544 E-1.16422
G1 X97.261 Y129.899 E-.33578
;WIPE_END
G1 X117.753 Y134.598 F9000
G1 E5 F2400
G1 F1200
G1 X126.63 Y134.719 E.27836
G1 X126.626 Y136.053 E.04183
G1 X126.317 Y136.588 E.01937
G1 X126.32 Y139.086 E.07832
G1 X126.449 Y139.214 E.0057
G1 X126.631 Y139.734 E.01727
G1 X126.915 Y140.087 E.01421
G1 X127.339 Y141.15 E.03588
G1 X127.501 Y141.862 E.02289
G1 X127.51 Y142.631 E.02411
G1 X127.17 Y144.412 E.05685
G1 X125.344 Y145.39 E.06495
G1 X121.677 Y145.365 E.11498
G1 X121.218 Y145.309 E.0145
G1 X119.8 Y144.921 E.04609
G1 X118.423 Y143.392 E.06452
G1 X118.055 Y142.486 E.03066
G1 X117.949 Y139.728 E.08654
G1 X117.994 Y136.44 E.1031
G1 X117.799 Y136.075 E.01298
G1 X117.52 Y134.727 E.04316
G1 X117.552 Y134.598 E.00417
G1 X117.697 Y134.598 E.00455
G1 X117.697 Y134.598 F9000
G1 X127.137 Y143.603
G1 F1200
G1 X127.137 Y141.819 E.05594
G1 X127.013 Y141.25 E.01826
G1 X126.718 Y140.544 E.02399
G1 X126.718 Y144.269 E.11679
G1 X126.299 Y144.494 E.01491
G1 X126.299 Y139.813 E.14677
G1 X126.154 Y139.4 E.01372
G1 X125.981 Y139.227 E.00767
G1 X125.978 Y136.497 E.0856
G1 X126.287 Y135.961 E.0194
G1 X126.29 Y135.057 E.02834
G1 X125.88 Y135.053 E.01286
G1 X125.88 Y144.718 E.30304
G1 X125.461 Y144.942 E.0149
G1 X125.461 Y135.05 E.31016
G1 X125.042 Y135.048 E.01314
G1 X125.042 Y145.056 E.31379
G1 X124.623 Y145.065 E.01314
G1 X124.623 Y135.045 E.31417
G1 X124.204 Y135.042 E.01314
G1 X124.204 Y145.063 E.3142
G1 X123.785 Y145.059 E.01314
G1 X123.785 Y135.039 E.31417
G1 X123.366 Y135.037 E.01314
G1 X123.366 Y145.054 E.31408
G1 X122.948 Y145.047 E.01311
G1 X122.948 Y135.037 E.31386
G1 X122.529 Y135.036 E.01314
G1 X122.529 Y145.04 E.31367
G1 X122.11 Y145.032 E.01314
G1 X122.11 Y135.033 E.31351
G1 X121.691 Y135.031 E.01314
G1 X121.691 Y145.025 E.31335
G1 X121.272 Y144.969 E.01325
G1 X121.272 Y135.025 E.31179
G1 X120.853 Y135.012 E.01314
G1 X120.853 Y144.845 E.30831
G1 X120.434 Y144.736 E.01357
G1 X120.434 Y134.998 E.30533
G1 X120.015 Y134.987 E.01314
G1 X120.015 Y144.626 E.30222
G1 X119.596 Y144.187 E.01903
G1 X119.596 Y134.975 E.28884
G1 X119.177 Y134.967 E.01314
G1 X119.177 Y143.722 E.27451
G1 X118.758 Y143.257 E.01963
G1 X118.758 Y134.957 E.26024
G1 X118.339 Y134.95 E.01314
