; generated by PrusaSlicer 2.9.0 on 2025-01-20 at 15:54:36 UTC

; 

; external perimeters extrusion width = 0.42mm
; perimeters extrusion width = 0.44mm
; infill extrusion width = 0.44mm
; solid infill extrusion width = 0.44mm
; top infill extrusion width = 0.40mm
; support material extrusion width = 0.36mm
; first layer extrusion width = 0.42mm



; Pre-Processed for Cancel-Object support by preprocess_cancellation v0.2.0
; 1 known objects
EXCLUDE_OBJECT_DEFINE NAME=sniffer_green_part_back_stl_id_0_copy_0 CENTER=118.298,119.229 POLYGON=[[84.588,94.301],[84.588,140.699],[150.412,140.699],[150.412,94.301]]
M73 P0 R68

; printing object sniffer_green_part_back.stl id:0 copy 0
EXCLUDE_OBJECT_START NAME=sniffer_green_part_back_stl_id_0_copy_0
; stop printing object sniffer_green_part_back.stl id:0 copy 0
EXCLUDE_OBJECT_END NAME=sniffer_green_part_back_stl_id_0_copy_0

;TYPE:Custom
START_PRINT EXTRUDER_TEMP=210 BED_TEMP=60
G21 ; set units to millimeters
G90 ; use absolute coordinates
M83 ; use relative distances for extrusion
; Filament gcode
M107
;LAYER_CHANGE
;Z:0.2
;HEIGHT:0.2
G1 E-5 F3600
G1 Z.2 F9000
G1 X81.936 Y90.996
G1 Z.2
G1 E5 F2400
M204 S500
;TYPE:Skirt/Brim
;WIDTH:0.42
G1 F1200
G1 X84.378 Y90.148 E.08105
G1 X150.622 Y90.148 E2.07703
G1 X152.342 Y90.543 E.05533
G1 X153.718 Y91.649 E.05535
G1 X154.565 Y94.091 E.08104
G1 X154.565 Y140.909 E1.46795
G1 X154.17 Y142.629 E.05533
G1 X153.064 Y144.004 E.05533
G1 X150.622 Y144.852 E.08105
G1 X84.378 Y144.852 E2.07703
G1 X82.658 Y144.457 E.05533
G1 X81.282 Y143.351 E.05535
G1 X80.435 Y140.909 E.08104
G1 X80.435 Y94.091 E1.46795
G1 X80.83 Y92.371 E.05533
G1 X81.898 Y91.042 E.05346
G1 X81.898 Y91.042 F9000
G1 X82.203 Y91.306
G1 F1200
G1 X82.302 Y91.191 E.00476
G1 X84.378 Y90.525 E.06836
G1 X150.622 Y90.525 E2.07703
G1 X152.252 Y90.92 E.05259
G1 X153.522 Y92.016 E.0526
G1 X154.188 Y94.091 E.06833
G1 X154.188 Y140.909 E1.46795
G1 X153.794 Y142.539 E.05258
G1 X152.698 Y143.808 E.05257
G1 X150.622 Y144.475 E.06837
G1 X84.378 Y144.475 E2.07703
G1 X82.748 Y144.08 E.05259
G1 X81.478 Y142.984 E.0526
G1 X80.812 Y140.909 E.06833
G1 X80.812 Y94.091 E1.46795
G1 X81.206 Y92.461 E.05258
G1 X82.164 Y91.352 E.04595
G1 X82.164 Y91.352 F9000
G1 X82.456 Y91.625
G1 F1200
G1 X82.667 Y91.4 E.00967
G1 X84.378 Y90.902 E.05587
G1 X150.622 Y90.902 E2.07703
G1 X152.157 Y91.296 E.04969
M73 P0 R67
G1 X153.313 Y92.38 E.04969
G1 X153.811 Y94.091 E.05587
G1 X153.811 Y140.909 E1.46795
G1 X153.417 Y142.444 E.04969
G1 X152.333 Y143.6 E.04969
G1 X150.622 Y144.098 E.05587
G1 X84.378 Y144.098 E2.07703
G1 X82.843 Y143.704 E.04969
G1 X81.687 Y142.62 E.04969
G1 X81.189 Y140.909 E.05587
G1 X81.189 Y94.091 E1.46795
G1 X81.583 Y92.556 E.04969
G1 X82.415 Y91.669 E.03813
G1 E-3.5 F3600
;WIPE_START
G1 F7200
G1 X82.456 Y91.625 E-.02857
G1 X82.667 Y91.4 E-.14652
G1 X84.378 Y90.902 E-.84645
G1 X85.385 Y90.902 E-.47846
;WIPE_END
; printing object sniffer_green_part_back.stl id:0 copy 0
EXCLUDE_OBJECT_START NAME=sniffer_green_part_back_stl_id_0_copy_0
G1 X85.442 Y139.845 F9000
G1 E5 F2400
;TYPE:Perimeter
;WIDTH:0.419999
G1 F1200
G1 X85.442 Y95.155 E1.40122
G1 X149.558 Y95.155 E2.01031
M73 P1 R67
G1 X149.558 Y117.5 E.70061
G1 X149.558 Y139.845 E.70061
G1 X85.502 Y139.845 E2.00843
G1 X85.502 Y139.845 F9000
G1 X85.065 Y140.222
G1 F1200
G1 X85.065 Y94.778 E1.42486
G1 X149.935 Y94.778 E2.03395
G1 X149.935 Y117.5 E.71243
G1 X149.935 Y140.222 E.71243
G1 X85.125 Y140.222 E2.03207
G1 X85.125 Y140.222 F9000
G1 X84.688 Y140.599
;TYPE:External perimeter
G1 F1200
G1 X84.688 Y94.401 E1.4485
G1 X150.312 Y94.401 E2.05759
G1 X150.312 Y117.5 E.72425
G1 X150.312 Y140.599 E.72425
G1 X84.748 Y140.599 E2.05571
G1 E-3.5 F3600
;WIPE_START
G1 F7200
G1 X84.688 Y140.599 E-.0285
G1 X84.688 Y137.501 E-1.4715
;WIPE_END
G1 X149.438 Y96.039 F9000
G1 E5 F2400
;TYPE:Solid infill
;WIDTH:0.420504
G1 F1200
G1 X148.844 Y95.445 E.02637
G1 X148.31 Y95.445 E.01677
G1 X149.268 Y96.403 E.04254
G1 X149.268 Y96.937 E.01677
G1 X147.776 Y95.445 E.06625
G1 X147.242 Y95.445 E.01677
G1 X149.268 Y97.471 E.08996
G1 X149.268 Y98.005 E.01677
G1 X146.708 Y95.445 E.11367
G1 X146.174 Y95.445 E.01677
G1 X149.268 Y98.539 E.13738
G1 X149.268 Y99.073 E.01677
G1 X145.64 Y95.445 E.16109
G1 X145.106 Y95.445 E.01677
G1 X149.268 Y99.607 E.1848
G1 X149.268 Y100.141 E.01677
G1 X144.572 Y95.445 E.20851
G1 X144.038 Y95.445 E.01677
G1 X149.268 Y100.675 E.23222
G1 X149.268 Y101.209 E.01677
G1 X143.504 Y95.445 E.25593
G1 X142.97 Y95.445 E.01677
G1 X149.268 Y101.743 E.27964
G1 X149.268 Y102.277 E.01677
G1 X142.436 Y95.445 E.30335
G1 X141.902 Y95.445 E.01677
G1 X149.268 Y102.811 E.32706
G1 X149.268 Y103.345 E.01677
G1 X141.368 Y95.445 E.35077
G1 X140.834 Y95.445 E.01677
G1 X149.268 Y103.879 E.37448
G1 X149.268 Y104.413 E.01677
G1 X140.3 Y95.445 E.39819
G1 X139.766 Y95.445 E.01677
G1 X149.268 Y104.947 E.4219
G1 X149.268 Y105.481 E.01677
G1 X139.232 Y95.445 E.44561
G1 X138.698 Y95.445 E.01677
G1 X149.268 Y106.015 E.46932
G1 X149.268 Y106.549 E.01677
M73 P2 R67
G1 X138.164 Y95.445 E.49303
G1 X137.63 Y95.445 E.01677
G1 X149.268 Y107.083 E.51674
G1 X149.268 Y107.617 E.01677
G1 X137.096 Y95.445 E.54045
G1 X136.562 Y95.445 E.01677
G1 X149.268 Y108.151 E.56416
G1 X149.268 Y108.685 E.01677
G1 X136.028 Y95.445 E.58787
G1 X135.494 Y95.445 E.01677
G1 X149.268 Y109.219 E.61158
G1 X149.268 Y109.753 E.01677
M73 P2 R66
G1 X134.96 Y95.445 E.63529
G1 X134.426 Y95.445 E.01677
G1 X149.268 Y110.287 E.659
G1 X149.268 Y110.821 E.01677
G1 X133.892 Y95.445 E.68271
G1 X133.358 Y95.445 E.01677
G1 X149.268 Y111.355 E.70642
G1 X149.268 Y111.889 E.01677
G1 X132.824 Y95.445 E.73013
G1 X132.29 Y95.445 E.01677
G1 X149.268 Y112.423 E.75384
G1 X149.268 Y112.957 E.01677
G1 X131.756 Y95.445 E.77755
G1 X131.222 Y95.445 E.01677
G1 X149.268 Y113.491 E.80126
G1 X149.268 Y114.025 E.01677
G1 X130.688 Y95.445 E.82497
G1 X130.154 Y95.445 E.01677
G1 X149.268 Y114.559 E.84868
G1 X149.268 Y115.093 E.01677
G1 X129.62 Y95.445 E.87239
G1 X129.086 Y95.445 E.01677
G1 X149.268 Y115.627 E.8961
G1 X149.268 Y116.161 E.01677
G1 X128.552 Y95.445 E.91981
G1 X128.018 Y95.445 E.01677
G1 X149.268 Y116.695 E.94352
G1 X149.268 Y117.229 E.01677
G1 X127.485 Y95.445 E.96721
G1 X126.951 Y95.445 E.01677
G1 X149.268 Y117.763 E.99092
G1 X149.268 Y118.297 E.01677
G1 X126.417 Y95.445 E1.01463
G1 X125.883 Y95.445 E.01677
G1 X149.268 Y118.831 E1.03834
G1 X149.268 Y119.365 E.01677
G1 X125.349 Y95.445 E1.06205
G1 X124.815 Y95.445 E.01677
G1 X149.268 Y119.899 E1.08576
G1 X149.268 Y120.433 E.01677
G1 X124.281 Y95.445 E1.10947
G1 X123.747 Y95.445 E.01677
G1 X149.268 Y120.967 E1.13318
G1 X149.268 Y121.501 E.01677
G1 X123.213 Y95.445 E1.15689
G1 X122.679 Y95.445 E.01677
G1 X149.268 Y122.035 E1.1806
G1 X149.268 Y122.569 E.01677
M73 P3 R66
G1 X122.145 Y95.445 E1.20431
G1 X121.611 Y95.445 E.01677
G1 X149.268 Y123.103 E1.22802
G1 X149.268 Y123.637 E.01677
G1 X121.077 Y95.445 E1.25173
G1 X120.543 Y95.445 E.01677
G1 X149.268 Y124.171 E1.27544
G1 X149.268 Y124.705 E.01677
G1 X120.009 Y95.445 E1.29915
G1 X119.475 Y95.445 E.01677
G1 X149.268 Y125.239 E1.32286
G1 X149.268 Y125.773 E.01677
G1 X118.941 Y95.445 E1.34657
G1 X118.407 Y95.445 E.01677
G1 X149.268 Y126.307 E1.37028
G1 X149.268 Y126.841 E.01677
G1 X117.873 Y95.445 E1.39399
G1 X117.339 Y95.445 E.01677
G1 X149.268 Y127.375 E1.4177
G1 X149.268 Y127.908 E.01673
G1 X116.805 Y95.445 E1.44139
G1 X116.271 Y95.445 E.01677
G1 X149.268 Y128.442 E1.4651
G1 X149.268 Y128.976 E.01677
M73 P3 R65
G1 X115.737 Y95.445 E1.48881
G1 X115.203 Y95.445 E.01677
G1 X149.268 Y129.51 E1.51252
G1 X149.268 Y130.044 E.01677
G1 X114.669 Y95.445 E1.53623
G1 X114.135 Y95.445 E.01677
G1 X149.268 Y130.578 E1.55994
G1 X149.268 Y131.112 E.01677
G1 X113.601 Y95.445 E1.58365
G1 X113.067 Y95.445 E.01677
G1 X149.268 Y131.646 E1.60736
G1 X149.268 Y132.18 E.01677
M73 P4 R65
G1 X112.533 Y95.445 E1.63107
G1 X111.999 Y95.445 E.01677
G1 X149.268 Y132.714 E1.65478
G1 X149.268 Y133.248 E.01677
G1 X111.465 Y95.445 E1.67849
G1 X110.931 Y95.445 E.01677
G1 X149.268 Y133.782 E1.7022
G1 X149.268 Y134.316 E.01677
G1 X110.397 Y95.445 E1.72591
G1 X109.863 Y95.445 E.01677
G1 X149.268 Y134.85 E1.74962
G1 X149.268 Y135.384 E.01677
G1 X109.329 Y95.445 E1.77333
G1 X108.795 Y95.445 E.01677
G1 X149.268 Y135.918 E1.79704
G1 X149.268 Y136.452 E.01677
G1 X108.261 Y95.445 E1.82075
G1 X107.727 Y95.445 E.01677
G1 X149.268 Y136.986 E1.84446
G1 X149.268 Y137.52 E.01677
G1 X107.193 Y95.445 E1.86817
G1 X106.659 Y95.445 E.01677
G1 X149.268 Y138.054 E1.89188
G1 X149.268 Y138.588 E.01677
G1 X106.125 Y95.445 E1.91559
G1 X105.591 Y95.445 E.01677
G1 X149.268 Y139.122 E1.9393
G1 X149.268 Y139.555 E.01359
G1 X149.166 Y139.555 E.0032
G1 X105.057 Y95.445 E1.95851
G1 X104.523 Y95.445 E.01677
M73 P5 R64
G1 X148.632 Y139.555 E1.95851
G1 X148.098 Y139.555 E.01677
G1 X103.989 Y95.445 E1.95851
G1 X103.455 Y95.445 E.01677
G1 X147.564 Y139.555 E1.95851
G1 X147.03 Y139.555 E.01677
G1 X102.921 Y95.445 E1.95851
G1 X102.387 Y95.445 E.01677
G1 X146.496 Y139.555 E1.95851
G1 X145.962 Y139.555 E.01677
G1 X101.853 Y95.445 E1.95851
G1 X101.319 Y95.445 E.01677
G1 X145.428 Y139.555 E1.95851
G1 X144.894 Y139.555 E.01677
G1 X100.785 Y95.445 E1.95851
G1 X100.251 Y95.445 E.01677
G1 X144.36 Y139.555 E1.95851
G1 X143.826 Y139.555 E.01677
G1 X99.717 Y95.445 E1.95851
G1 X99.183 Y95.445 E.01677
G1 X143.292 Y139.555 E1.95851
G1 X142.758 Y139.555 E.01677
G1 X98.649 Y95.445 E1.95851
G1 X98.115 Y95.445 E.01677
G1 X142.224 Y139.555 E1.95851
G1 X141.69 Y139.555 E.01677
M73 P6 R64
G1 X97.581 Y95.445 E1.95851
G1 X97.047 Y95.445 E.01677
G1 X141.156 Y139.555 E1.95851
G1 X140.622 Y139.555 E.01677
G1 X96.513 Y95.445 E1.95851
G1 X95.979 Y95.445 E.01677
G1 X140.089 Y139.555 E1.95853
G1 X139.555 Y139.555 E.01677
G1 X95.445 Y95.445 E1.95853
G1 X94.911 Y95.445 E.01677
G1 X139.021 Y139.555 E1.95853
G1 X138.487 Y139.555 E.01677
M73 P6 R63
G1 X94.377 Y95.445 E1.95853
G1 X93.843 Y95.445 E.01677
G1 X137.953 Y139.555 E1.95853
G1 X137.419 Y139.555 E.01677
G1 X93.31 Y95.445 E1.95851
G1 X92.776 Y95.445 E.01677
G1 X136.885 Y139.555 E1.95851
G1 X136.351 Y139.555 E.01677
G1 X92.242 Y95.445 E1.95851
G1 X91.708 Y95.445 E.01677
G1 X135.817 Y139.555 E1.95851
G1 X135.283 Y139.555 E.01677
G1 X91.174 Y95.445 E1.95851
G1 X90.64 Y95.445 E.01677
M73 P7 R63
G1 X134.749 Y139.555 E1.95851
G1 X134.215 Y139.555 E.01677
G1 X90.106 Y95.445 E1.95851
G1 X89.572 Y95.445 E.01677
G1 X133.681 Y139.555 E1.95851
G1 X133.147 Y139.555 E.01677
G1 X89.038 Y95.445 E1.95851
G1 X88.504 Y95.445 E.01677
G1 X132.613 Y139.555 E1.95851
G1 X132.079 Y139.555 E.01677
G1 X87.97 Y95.445 E1.95851
G1 X87.436 Y95.445 E.01677
G1 X131.545 Y139.555 E1.95851
G1 X131.011 Y139.555 E.01677
G1 X86.902 Y95.445 E1.95851
G1 X86.368 Y95.445 E.01677
G1 X130.477 Y139.555 E1.95851
G1 X129.943 Y139.555 E.01677
G1 X85.834 Y95.445 E1.95851
G1 X85.732 Y95.445 E.0032
G1 X85.732 Y95.878 E.01359
G1 X129.409 Y139.555 E1.9393
G1 X128.875 Y139.555 E.01677
G1 X85.732 Y96.412 E1.91559
G1 X85.732 Y96.946 E.01677
M73 P7 R62
G1 X128.341 Y139.555 E1.89188
G1 X127.807 Y139.555 E.01677
M73 P8 R62
G1 X85.732 Y97.48 E1.86817
G1 X85.732 Y98.014 E.01677
G1 X127.273 Y139.555 E1.84446
G1 X126.739 Y139.555 E.01677
G1 X85.732 Y98.548 E1.82075
G1 X85.732 Y99.082 E.01677
G1 X126.205 Y139.555 E1.79704
G1 X125.671 Y139.555 E.01677
G1 X85.732 Y99.616 E1.77333
G1 X85.732 Y100.15 E.01677
G1 X125.137 Y139.555 E1.74962
G1 X124.603 Y139.555 E.01677
G1 X85.732 Y100.684 E1.72591
G1 X85.732 Y101.218 E.01677
G1 X124.069 Y139.555 E1.7022
G1 X123.535 Y139.555 E.01677
G1 X85.732 Y101.752 E1.67849
G1 X85.732 Y102.286 E.01677
G1 X123.001 Y139.555 E1.65478
G1 X122.467 Y139.555 E.01677
G1 X85.732 Y102.82 E1.63107
G1 X85.732 Y103.354 E.01677
G1 X121.933 Y139.555 E1.60736
G1 X121.399 Y139.555 E.01677
G1 X85.732 Y103.888 E1.58365
G1 X85.732 Y104.422 E.01677
G1 X120.865 Y139.555 E1.55994
G1 X120.331 Y139.555 E.01677
M73 P9 R62
G1 X85.732 Y104.956 E1.53623
G1 X85.732 Y105.49 E.01677
G1 X119.797 Y139.555 E1.51252
G1 X119.263 Y139.555 E.01677
G1 X85.732 Y106.024 E1.48881
G1 X85.732 Y106.558 E.01677
G1 X118.729 Y139.555 E1.4651
G1 X118.195 Y139.555 E.01677
G1 X85.732 Y107.092 E1.44139
G1 X85.732 Y107.626 E.01677
G1 X117.661 Y139.555 E1.41768
G1 X117.127 Y139.555 E.01677
G1 X85.732 Y108.16 E1.39397
G1 X85.732 Y108.693 E.01673
G1 X116.593 Y139.555 E1.37028
G1 X116.059 Y139.555 E.01677
M73 P9 R61
G1 X85.732 Y109.227 E1.34657
G1 X85.732 Y109.761 E.01677
G1 X115.525 Y139.555 E1.32286
G1 X114.991 Y139.555 E.01677
G1 X85.732 Y110.295 E1.29915
G1 X85.732 Y110.829 E.01677
G1 X114.457 Y139.555 E1.27544
G1 X113.923 Y139.555 E.01677
G1 X85.732 Y111.363 E1.25173
G1 X85.732 Y111.897 E.01677
G1 X113.389 Y139.555 E1.22802
G1 X112.855 Y139.555 E.01677
G1 X85.732 Y112.431 E1.20431
G1 X85.732 Y112.965 E.01677
G1 X112.321 Y139.555 E1.1806
G1 X111.787 Y139.555 E.01677
G1 X85.732 Y113.499 E1.15689
G1 X85.732 Y114.033 E.01677
G1 X111.253 Y139.555 E1.13318
G1 X110.719 Y139.555 E.01677
G1 X85.732 Y114.567 E1.10947
G1 X85.732 Y115.101 E.01677
M73 P10 R61
G1 X110.185 Y139.555 E1.08576
G1 X109.651 Y139.555 E.01677
G1 X85.732 Y115.635 E1.06205
G1 X85.732 Y116.169 E.01677
G1 X109.117 Y139.555 E1.03834
G1 X108.583 Y139.555 E.01677
G1 X85.732 Y116.703 E1.01463
G1 X85.732 Y117.237 E.01677
G1 X108.049 Y139.555 E.99092
G1 X107.515 Y139.555 E.01677
G1 X85.732 Y117.771 E.96721
G1 X85.732 Y118.305 E.01677
G1 X106.981 Y139.555 E.9435
G1 X106.447 Y139.555 E.01677
G1 X85.732 Y118.839 E.91979
G1 X85.732 Y119.373 E.01677
G1 X105.914 Y139.555 E.8961
G1 X105.38 Y139.555 E.01677
G1 X85.732 Y119.907 E.87239
G1 X85.732 Y120.441 E.01677
G1 X104.846 Y139.555 E.84868
G1 X104.312 Y139.555 E.01677
G1 X85.732 Y120.975 E.82497
G1 X85.732 Y121.509 E.01677
G1 X103.778 Y139.555 E.80126
G1 X103.244 Y139.555 E.01677
G1 X85.732 Y122.043 E.77755
G1 X85.732 Y122.577 E.01677
G1 X102.71 Y139.555 E.75384
G1 X102.176 Y139.555 E.01677
G1 X85.732 Y123.111 E.73013
G1 X85.732 Y123.645 E.01677
G1 X101.642 Y139.555 E.70642
G1 X101.108 Y139.555 E.01677
G1 X85.732 Y124.179 E.68271
G1 X85.732 Y124.713 E.01677
G1 X100.574 Y139.555 E.659
G1 X100.04 Y139.555 E.01677
G1 X85.732 Y125.247 E.63529
G1 X85.732 Y125.781 E.01677
G1 X99.506 Y139.555 E.61158
G1 X98.972 Y139.555 E.01677
G1 X85.732 Y126.315 E.58787
G1 X85.732 Y126.849 E.01677
G1 X98.438 Y139.555 E.56416
G1 X97.904 Y139.555 E.01677
G1 X85.732 Y127.383 E.54045
G1 X85.732 Y127.917 E.01677
G1 X97.37 Y139.555 E.51674
G1 X96.836 Y139.555 E.01677
G1 X85.732 Y128.451 E.49303
G1 X85.732 Y128.985 E.01677
G1 X96.302 Y139.555 E.46932
G1 X95.768 Y139.555 E.01677
G1 X85.732 Y129.519 E.44561
G1 X85.732 Y130.053 E.01677
G1 X95.234 Y139.555 E.4219
G1 X94.7 Y139.555 E.01677
G1 X85.732 Y130.587 E.39819
G1 X85.732 Y131.121 E.01677
G1 X94.166 Y139.555 E.37448
G1 X93.632 Y139.555 E.01677
M73 P10 R60
G1 X85.732 Y131.655 E.35077
G1 X85.732 Y132.189 E.01677
G1 X93.098 Y139.555 E.32706
G1 X92.564 Y139.555 E.01677
G1 X85.732 Y132.723 E.30335
G1 X85.732 Y133.257 E.01677
G1 X92.03 Y139.555 E.27964
G1 X91.496 Y139.555 E.01677
G1 X85.732 Y133.791 E.25593
G1 X85.732 Y134.325 E.01677
G1 X90.962 Y139.555 E.23222
G1 X90.428 Y139.555 E.01677
G1 X85.732 Y134.859 E.20851
G1 X85.732 Y135.393 E.01677
G1 X89.894 Y139.555 E.1848
G1 X89.36 Y139.555 E.01677
M73 P11 R60
G1 X85.732 Y135.927 E.16109
G1 X85.732 Y136.461 E.01677
G1 X88.826 Y139.555 E.13738
G1 X88.292 Y139.555 E.01677
G1 X85.732 Y136.995 E.11367
G1 X85.732 Y137.529 E.01677
G1 X87.758 Y139.555 E.08996
G1 X87.224 Y139.555 E.01677
G1 X85.732 Y138.063 E.06625
G1 X85.732 Y138.597 E.01677
G1 X86.69 Y139.555 E.04254
G1 X86.156 Y139.555 E.01677
G1 X85.562 Y138.961 E.02637
M106 S255
;LAYER_CHANGE
;Z:0.48
;HEIGHT:0.28
;BEFORE_LAYER_CHANGE
G92 E0
;0.48


G1 E-3.5 F3600
;WIPE_START
G1 F7200
G1 X86.156 Y139.555 E-.39902
G1 X86.69 Y139.555 E-.25365
G1 X85.732 Y138.597 E-.64354
G1 X85.732 Y138.168 E-.20379
;WIPE_END
G1 Z.48 F9000
;AFTER_LAYER_CHANGE
;0.48
M104 S205 ; set temperature
G1 X85.337 Y139.949
G1 E5 F2400
;TYPE:Perimeter
;WIDTH:0.44
G1 F3600
G1 X85.337 Y95.051 E1.98564
G1 X149.663 Y95.051 E2.84486
G1 X149.663 Y117.5 E.99282
G1 X149.663 Y139.949 E.99282
