; generated by PrusaSlicer 2.9.0 on 2025-01-20 at 15:54:37 UTC

; 

; external perimeters extrusion width = 0.42mm
; perimeters extrusion width = 0.44mm
; infill extrusion width = 0.44mm
; solid infill extrusion width = 0.44mm
; top infill extrusion width = 0.40mm
; support material extrusion width = 0.36mm
; first layer extrusion width = 0.42mm



; Pre-Processed for Cancel-Object support by preprocess_cancellation v0.2.0
; 1 known objects
EXCLUDE_OBJECT_DEFINE NAME=sniffer_yellow_part_face_stl_id_0_copy_0 CENTER=118.272,117.649 POLYGON=[[107.71,106.086],[107.71,128.914],[127.29,128.914],[127.29,106.086]]
M73 P0 R32

; printing object sniffer_yellow_part_face.stl id:0 copy 0
EXCLUDE_OBJECT_START NAME=sniffer_yellow_part_face_stl_id_0_copy_0
; stop printing object sniffer_yellow_part_face.stl id:0 copy 0
EXCLUDE_OBJECT_END NAME=sniffer_yellow_part_face_stl_id_0_copy_0

;TYPE:Custom
START_PRINT EXTRUDER_TEMP=210 BED_TEMP=60
G21 ; set units to millimeters
G90 ; use absolute coordinates
M83 ; use relative distances for extrusion
; Filament gcode
M107
;LAYER_CHANGE
;Z:0.2
;HEIGHT:0.2
G1 E-5 F3600
G1 Z.2 F9000
G1 X105.058 Y102.78
G1 Z.2
G1 E5 F2400
M204 S500
;TYPE:Skirt/Brim
;WIDTH:0.42
G1 F1200
G1 X107.5 Y101.933 E.08104
G1 X117.746 Y101.941 E.32126
G1 X127.746 Y102.565 E.31415
G1 X129.438 Y103.066 E.05533
G1 X130.741 Y104.256 E.05533
G1 X131.443 Y106.5 E.07372
G1 X131.443 Y128.5 E.68979
G1 X131.048 Y130.22 E.05533
G1 X129.942 Y131.595 E.05533
G1 X127.746 Y132.435 E.07372
G1 X117.5 Y133.067 E.32187
G1 X107.5 Y133.067 E.31354
G1 X105.78 Y132.672 E.05533
G1 X104.405 Y131.566 E.05533
G1 X103.557 Y129.124 E.08105
G1 X103.557 Y105.876 E.72892
G1 X103.952 Y104.156 E.05533
G1 X105.02 Y102.827 E.05346
G1 X105.02 Y102.827 F9000
G1 X105.326 Y103.091
G1 F1200
G1 X105.425 Y102.976 E.00476
G1 X107.5 Y102.31 E.06833
G1 X117.722 Y102.317 E.3205
G1 X127.722 Y102.941 E.31415
G1 X129.324 Y103.437 E.05258
G1 X130.523 Y104.609 E.05257
G1 X131.066 Y106.5 E.06169
G1 X131.066 Y128.5 E.68979
G1 X130.671 Y130.13 E.05259
G1 X129.575 Y131.399 E.05257
G1 X127.722 Y132.059 E.06167
G1 X117.5 Y132.69 E.32111
G1 X107.5 Y132.69 E.31354
G1 X105.87 Y132.296 E.05258
G1 X104.601 Y131.2 E.05257
G1 X103.934 Y129.124 E.06837
G1 X103.934 Y105.876 E.72892
G1 X104.329 Y104.246 E.05259
G1 X105.287 Y103.136 E.04597
G1 X105.287 Y103.136 F9000
G1 X105.578 Y103.41
G1 F1200
G1 X105.789 Y103.185 E.00967
G1 X107.5 Y102.687 E.05587
G1 X117.699 Y102.693 E.31978
G1 X127.699 Y103.318 E.31415
G1 X129.206 Y103.806 E.04967
G1 X130.292 Y104.96 E.04969
G1 X130.689 Y106.5 E.04986
G1 X130.689 Y128.5 E.68979
G1 X130.295 Y130.035 E.04969
G1 X129.211 Y131.191 E.04969
G1 X127.699 Y131.682 E.04984
G1 X117.5 Y132.313 E.32039
G1 X107.5 Y132.313 E.31354
G1 X105.965 Y131.919 E.04969
G1 X104.809 Y130.835 E.04969
G1 X104.311 Y129.124 E.05587
G1 X104.311 Y105.876 E.72892
G1 X104.705 Y104.341 E.04969
G1 X105.537 Y103.454 E.03813
G1 E-3.5 F3600
;WIPE_START
G1 F7200
G1 X105.578 Y103.41 E-.02857
G1 X105.789 Y103.185 E-.14652
G1 X107.5 Y102.687 E-.84645
G1 X108.507 Y102.688 E-.47846
;WIPE_END
; printing object sniffer_yellow_part_face.stl id:0 copy 0
EXCLUDE_OBJECT_START NAME=sniffer_yellow_part_face_stl_id_0_copy_0
G1 X116.727 Y127.715 F9000
G1 E5 F2400
;TYPE:Perimeter
;WIDTH:0.419999
G1 F1200
G1 X116.668 Y127.759 E.00231
G1 X116.555 Y128.06 E.01008
G1 X108.564 Y128.06 E.25055
G1 X108.564 Y106.94 E.6622
G1 X116.555 Y106.94 E.25055
M73 P1 R32
G1 X116.668 Y107.241 E.01008
G1 X116.867 Y107.414 E.00827
G1 X117.093 Y107.52 E.00783
G1 X117.379 Y107.564 E.00907
G1 X126.436 Y107.564 E.28398
G1 X126.436 Y116.5 E.28018
G1 X126.436 Y127.436 E.34289
G1 X117.29 Y127.44 E.28677
G1 X116.986 Y127.521 E.00986
G1 X116.775 Y127.679 E.00826
G1 X116.775 Y127.679 F9000
G1 X116.995 Y127.979
G1 F1200
G1 X116.952 Y128.007 E.00161
G1 X116.813 Y128.437 E.01417
G1 X108.187 Y128.437 E.27046
G1 X108.187 Y106.563 E.68584
G1 X116.813 Y106.563 E.27046
G1 X116.952 Y106.993 E.01417
G1 X117.143 Y107.136 E.00748
G1 X117.379 Y107.187 E.00757
G1 X126.813 Y107.187 E.2958
G1 X126.813 Y116.5 E.292
G1 X126.813 Y127.813 E.35471
G1 X117.5 Y127.813 E.292
G1 X117.207 Y127.839 E.00922
G1 X117.045 Y127.946 E.00609
G1 X117.045 Y127.946 F9000
G1 X117.251 Y128.266
;TYPE:External perimeter
G1 F1200
G1 X117.19 Y128.379 E.00403
G1 X117.19 Y128.814 E.01364
G1 X107.81 Y128.814 E.2941
G1 X107.81 Y106.186 E.70948
G1 X117.19 Y106.186 E.2941
G1 X117.19 Y106.621 E.01364
G1 X117.236 Y106.745 E.00415
G1 X117.379 Y106.81 E.00493
G1 X127.19 Y106.81 E.30762
G1 X127.19 Y116.5 E.30382
G1 X127.19 Y128.19 E.36653
G1 X117.5 Y128.19 E.30382
G1 X117.284 Y128.219 E.00683
G1 E-3.5 F3600
;WIPE_START
G1 F7200
G1 X117.251 Y128.266 E-.02728
G1 X117.19 Y128.379 E-.061
G1 X117.19 Y128.814 E-.20663
G1 X114.653 Y128.814 E-1.20509
;WIPE_END
G1 X125.551 Y107.685 F9000
G1 E5 F2400
;TYPE:Solid infill
;WIDTH:0.420977
G1 F1200
G1 X126.145 Y108.279 E.02641
G1 X126.145 Y108.814 E.01682
G1 X125.186 Y107.855 E.04263
G1 X124.651 Y107.855 E.01682
G1 X126.145 Y109.349 E.06642
G1 X126.145 Y109.883 E.01679
G1 X124.117 Y107.855 E.09016
G1 X123.582 Y107.855 E.01682
G1 X126.145 Y110.418 E.11394
G1 X126.145 Y110.953 E.01682
G1 X123.047 Y107.855 E.13773
G1 X122.513 Y107.855 E.01679
G1 X126.145 Y111.487 E.16147
G1 X126.145 Y112.022 E.01682
G1 X121.978 Y107.855 E.18525
G1 X121.443 Y107.855 E.01682
G1 X126.145 Y112.557 E.20903
G1 X126.145 Y113.091 E.01679
G1 X120.909 Y107.855 E.23277
G1 X120.374 Y107.855 E.01682
G1 X126.145 Y113.626 E.25656
G1 X126.145 Y114.161 E.01682
G1 X119.839 Y107.855 E.28034
G1 X119.305 Y107.855 E.01679
G1 X126.145 Y114.695 E.30408
G1 X126.145 Y115.23 E.01682
G1 X118.77 Y107.855 E.32787
G1 X118.235 Y107.855 E.01682
G1 X126.145 Y115.765 E.35165
G1 X126.145 Y116.299 E.01679
G1 X117.701 Y107.855 E.37539
G1 X117.374 Y107.855 E.01028
G1 X117.143 Y107.832 E.0073
G1 X126.145 Y116.834 E.4002
G1 X126.145 Y117.369 E.01682
G1 X116.007 Y107.23 E.45072
G1 X115.472 Y107.23 E.01682
G1 X126.145 Y117.903 E.47449
G1 X126.145 Y118.438 E.01682
M73 P2 R32
G1 X114.938 Y107.23 E.49825
G1 X114.403 Y107.23 E.01682
G1 X126.145 Y118.973 E.52203
G1 X126.145 Y119.507 E.01679
G1 X113.868 Y107.23 E.54579
G1 X113.334 Y107.23 E.01679
G1 X126.145 Y120.042 E.56956
G1 X126.145 Y120.577 E.01682
G1 X112.799 Y107.23 E.59334
G1 X112.265 Y107.23 E.01679
G1 X126.145 Y121.111 E.61708
G1 X126.145 Y121.646 E.01682
G1 X111.73 Y107.23 E.64086
M73 P2 R31
G1 X111.195 Y107.23 E.01682
G1 X126.145 Y122.18 E.66463
G1 X126.145 Y122.715 E.01682
G1 X110.661 Y107.23 E.68839
G1 X110.126 Y107.23 E.01682
G1 X126.145 Y123.25 E.71217
G1 X126.145 Y123.784 E.01679
G1 X109.591 Y107.23 E.73593
G1 X109.057 Y107.23 E.01679
G1 X126.145 Y124.319 E.7597
G1 X126.145 Y124.854 E.01682
G1 X108.855 Y107.563 E.76868
G1 X108.855 Y108.097 E.01679
G1 X126.145 Y125.388 E.76868
G1 X126.145 Y125.923 E.01682
G1 X108.855 Y108.632 E.76868
G1 X108.855 Y109.167 E.01682
G1 X126.145 Y126.458 E.76868
G1 X126.145 Y126.992 E.01679
G1 X108.855 Y109.701 E.76868
G1 X108.855 Y110.236 E.01682
G1 X125.764 Y127.145 E.75172
G1 X125.229 Y127.145 E.01682
M73 P3 R31
G1 X108.855 Y110.771 E.72793
G1 X108.855 Y111.305 E.01679
G1 X124.695 Y127.145 E.70419
G1 X124.16 Y127.145 E.01682
G1 X108.855 Y111.84 E.68041
G1 X108.855 Y112.375 E.01682
G1 X123.625 Y127.145 E.65662
G1 X123.091 Y127.145 E.01679
G1 X108.855 Y112.909 E.63288
G1 X108.855 Y113.444 E.01682
G1 X122.556 Y127.145 E.6091
G1 X122.021 Y127.145 E.01682
G1 X108.855 Y113.979 E.58532
G1 X108.855 Y114.513 E.01679
G1 X121.487 Y127.145 E.56158
G1 X120.952 Y127.145 E.01682
G1 X108.855 Y115.048 E.53779
G1 X108.855 Y115.583 E.01682
G1 X120.417 Y127.145 E.51401
G1 X119.883 Y127.145 E.01679
G1 X108.855 Y116.117 E.49027
G1 X108.855 Y116.652 E.01682
G1 X119.348 Y127.145 E.46648
G1 X118.813 Y127.145 E.01682
G1 X108.855 Y117.187 E.4427
G1 X108.855 Y117.721 E.01679
G1 X118.279 Y127.145 E.41896
G1 X117.744 Y127.145 E.01682
G1 X108.855 Y118.256 E.39517
G1 X108.855 Y118.79 E.01679
G1 X117.231 Y127.167 E.37239
G1 X117.006 Y127.202 E.00716
G1 X116.819 Y127.29 E.0065
G1 X108.855 Y119.325 E.35407
G1 X108.855 Y119.86 E.01682
G1 X116.509 Y127.515 E.34029
G1 X116.439 Y127.576 E.00292
G1 X116.367 Y127.77 E.0065
G1 X116.23 Y127.77 E.00431
G1 X108.855 Y120.394 E.32789
G1 X108.855 Y120.929 E.01682
G1 X115.695 Y127.77 E.30411
G1 X115.161 Y127.77 E.01679
G1 X108.855 Y121.464 E.28034
G1 X108.855 Y121.998 E.01679
G1 X114.626 Y127.77 E.25658
G1 X114.091 Y127.77 E.01682
G1 X108.855 Y122.533 E.2328
G1 X108.855 Y123.068 E.01682
G1 X113.557 Y127.77 E.20903
G1 X113.022 Y127.77 E.01682
G1 X108.855 Y123.602 E.18527
G1 X108.855 Y124.137 E.01682
G1 X112.487 Y127.77 E.16149
G1 X111.953 Y127.77 E.01679
M73 P4 R31
G1 X108.855 Y124.672 E.13773
G1 X108.855 Y125.206 E.01679
G1 X111.418 Y127.77 E.11396
G1 X110.883 Y127.77 E.01682
G1 X108.855 Y125.741 E.09018
G1 X108.855 Y126.276 E.01682
G1 X110.349 Y127.77 E.06642
G1 X109.814 Y127.77 E.01682
G1 X108.855 Y126.81 E.04266
G1 X108.855 Y127.345 E.01682
G1 X109.449 Y127.939 E.02641
M106 S255
;LAYER_CHANGE
;Z:0.48
;HEIGHT:0.28
;BEFORE_LAYER_CHANGE
G92 E0
;0.48


G1 E-3.5 F3600
;WIPE_START
G1 F7200
G1 X108.855 Y127.345 E-.39902
G1 X108.855 Y126.81 E-.25412
G1 X109.814 Y127.77 E-.64455
G1 X110.24 Y127.77 E-.20231
;WIPE_END
G1 Z.48 F9000
;AFTER_LAYER_CHANGE
;0.48
M104 S205 ; set temperature
G1 X116.826 Y127.815
G1 E5 F2400
;TYPE:Perimeter
;WIDTH:0.44
G1 F3600
G1 X116.772 Y127.855 E.00297
G1 X116.656 Y128.164 E.0146
G1 X108.46 Y128.164 E.36247
G1 X108.46 Y106.836 E.94324
G1 X116.656 Y106.836 E.36247
G1 X116.772 Y107.145 E.0146
G1 X116.97 Y107.314 E.01151
G1 X117.191 Y107.417 E.01078
G1 X117.47 Y107.46 E.01248
G1 X126.54 Y107.46 E.40113
G1 X126.54 Y116.5 E.3998
G1 X126.54 Y127.54 E.48825
G1 X117.384 Y127.544 E.40493
G1 X117.087 Y127.623 E.01359
G1 X116.875 Y127.78 E.01167
G1 X116.875 Y127.78 F9000
G1 X117.095 Y128.082
G1 F3600
G1 X117.057 Y128.106 E.00199
G1 X116.92 Y128.544 E.0203
G1 X108.08 Y128.544 E.39095
G1 X108.08 Y106.456 E.97686
G1 X116.92 Y106.456 E.39095
G1 X117.057 Y106.894 E.0203
G1 X117.244 Y107.031 E.01025
G1 X117.47 Y107.08 E.01023
G1 X126.92 Y107.08 E.41793
G1 X126.92 Y116.5 E.41661
G1 X126.92 Y127.92 E.50506
G1 X117.5 Y127.92 E.41661
G1 X117.305 Y127.945 E.00869
G1 X117.145 Y128.049 E.00844
G1 X117.145 Y128.049 F9000
G1 X117.353 Y128.356
;TYPE:External perimeter
;WIDTH:0.42
G1 F1800
G1 X117.29 Y128.47 E.00546
G1 X117.29 Y128.914 E.0186
G1 X107.71 Y128.914 E.40138
G1 X107.71 Y106.086 E.95643
G1 X117.29 Y106.086 E.40138
G1 X117.29 Y106.53 E.0186
G1 X117.335 Y106.649 E.00533
G1 X117.47 Y106.71 E.00621
G1 X127.29 Y106.71 E.41143
G1 X127.29 Y116.5 E.41018
G1 X127.29 Y128.29 E.49397
G1 X117.5 Y128.29 E.41018
G1 X117.39 Y128.314 E.00472
G1 E-3.5 F3600
;WIPE_START
G1 F7200
G1 X117.353 Y128.356 E-.02659
G1 X117.29 Y128.47 E-.06187
G1 X117.29 Y128.914 E-.2109
G1 X114.762 Y128.914 E-1.20064
;WIPE_END
G1 X108.855 Y107.159 F9000
G1 E5 F2400
;TYPE:Solid infill
;WIDTH:0.532175
G1 F3600
G1 X108.814 Y107.117 E.00323
G1 X108.757 Y107.132 E.00324
G1 X108.741 Y107.189 E.00325
G1 X108.783 Y107.231 E.00326
G1 X108.84 Y107.216 E.00324
;WIDTH:0.44
G1 X109.447 Y107.128 E.02713
G1 X108.752 Y107.823 E.04347
G1 X108.752 Y108.36 E.02375
G1 X109.984 Y107.128 E.07705
G1 X110.522 Y107.128 E.02379
G1 X108.752 Y108.897 E.11067
G1 X108.752 Y109.435 E.02379
G1 X111.059 Y107.128 E.14429
G1 X111.596 Y107.128 E.02375
G1 X108.752 Y109.972 E.17788
G1 X108.752 Y110.509 E.02375
G1 X112.133 Y107.128 E.21146
G1 X112.671 Y107.128 E.02379
G1 X108.752 Y111.046 E.24508
G1 X108.752 Y111.584 E.02379
G1 X113.208 Y107.128 E.2787
G1 X113.745 Y107.128 E.02375
G1 X108.752 Y112.121 E.31228
G1 X108.752 Y112.658 E.02375
G1 X114.282 Y107.128 E.34587
G1 X114.82 Y107.128 E.02379
G1 X108.752 Y113.195 E.37949
G1 X108.752 Y113.733 E.02379
G1 X115.357 Y107.128 E.41311
G1 X115.894 Y107.128 E.02375
G1 X108.752 Y114.27 E.44669
G1 X108.752 Y114.807 E.02375
G1 X116.432 Y107.128 E.48031
G1 X116.663 Y107.434 E.01696
G1 X108.752 Y115.345 E.49479
G1 X108.752 Y115.882 E.02375
G1 X116.984 Y107.65 E.51487
G1 X117.423 Y107.748 E.01989
G1 X108.752 Y116.419 E.54232
G1 X108.752 Y116.956 E.02375
G1 X117.956 Y107.752 E.57566
G1 X118.494 Y107.752 E.02379
G1 X108.752 Y117.494 E.60931
G1 X108.752 Y118.031 E.02375
G1 X119.031 Y107.752 E.64289
G1 X119.568 Y107.752 E.02375
G1 X108.752 Y118.568 E.67648
G1 X108.752 Y119.105 E.02375
G1 X120.105 Y107.752 E.71007
G1 X120.643 Y107.752 E.02379
G1 X108.752 Y119.643 E.74372
G1 X108.752 Y120.18 E.02375
G1 X121.18 Y107.752 E.7773
G1 X121.717 Y107.752 E.02375
G1 X108.752 Y120.717 E.81089
G1 X108.752 Y121.255 E.02379
G1 X122.255 Y107.752 E.84454
G1 X122.792 Y107.752 E.02375
G1 X108.752 Y121.792 E.87812
G1 X108.752 Y122.329 E.02375
G1 X123.329 Y107.752 E.91171
G1 X123.866 Y107.752 E.02375
G1 X108.752 Y122.866 E.9453
G1 X108.752 Y123.404 E.02379
G1 X124.404 Y107.752 E.97895
G1 X124.941 Y107.752 E.02375
G1 X108.752 Y123.941 E1.01253
G1 X108.752 Y124.478 E.02375
G1 X125.478 Y107.752 E1.04612
G1 X125.478 Y107.752 F9000
G1 X126.369 Y107.661
;WIDTH:0.400089
G1 F3600
G1 X126.298 Y107.642 E.00291
G1 X126.317 Y107.713 E.00291
G1 X126.358 Y107.702 E.00168
;WIDTH:0.44
G1 X126.015 Y107.752 E.01533
G1 X108.752 Y125.015 E1.07971
G1 X108.752 Y125.553 E.02379
M73 P5 R31
G1 X126.248 Y108.057 E1.09428
G1 X126.248 Y108.595 E.02379
G1 X108.752 Y126.09 E1.09425
G1 X108.752 Y126.627 E.02375
G1 X126.248 Y109.132 E1.09425
G1 X126.248 Y109.669 E.02375
G1 X108.752 Y127.165 E1.09428
G1 X108.752 Y127.165 F9000
G1 X108.69 Y127.994
;WIDTH:0.400089
G1 F3600
G1 X108.649 Y128.005 E.00168
G1 X108.63 Y127.934 E.00291
G1 X108.701 Y127.953 E.00291
;WIDTH:0.44
G1 X108.752 Y127.702 E.01133
G1 X126.248 Y110.207 E1.09425
G1 X126.248 Y110.744 E.02375
G1 X109.12 Y127.872 E1.07126
G1 X109.657 Y127.872 E.02375
G1 X126.248 Y111.281 E1.03768
G1 X126.248 Y111.818 E.02375
G1 X110.194 Y127.872 E1.00409
G1 X110.731 Y127.872 E.02375
G1 X126.248 Y112.356 E.97047
G1 X126.248 Y112.893 E.02375
G1 X111.269 Y127.872 E.93685
G1 X111.806 Y127.872 E.02375
G1 X126.248 Y113.43 E.90327
G1 X126.248 Y113.968 E.02379
G1 X112.343 Y127.872 E.86965
G1 X112.88 Y127.872 E.02375
G1 X126.248 Y114.505 E.83606
G1 X126.248 Y115.042 E.02375
M73 P5 R30
G1 X113.418 Y127.872 E.80245
G1 X113.955 Y127.872 E.02375
G1 X126.248 Y115.579 E.76886
G1 X126.248 Y116.117 E.02379
G1 X114.492 Y127.872 E.73524
G1 X115.03 Y127.872 E.02379
G1 X126.248 Y116.654 E.70162
G1 X126.248 Y117.191 E.02375
G1 X115.567 Y127.872 E.66804
G1 X115.988 Y128.064 E.02046
;WIDTH:0.400089
G1 X115.947 Y128.075 E.00168
G1 X115.928 Y128.004 E.00291
G1 X115.999 Y128.023 E.00291
;WIDTH:0.44
G1 X116.104 Y127.872 E.00813
G1 X126.248 Y117.728 E.63445
G1 X126.248 Y118.266 E.02379
G1 X117.23 Y127.283 E.56399
G1 X116.962 Y127.449 E.01394
;WIDTH:0.400089
G1 X116.648 Y127.717 E.01634
G1 X116.505 Y127.928 E.01009
G1 X116.505 Y127.928 F9000
G1 X117.803 Y127.248
;WIDTH:0.44
G1 F3600
G1 X126.248 Y118.803 E.52819
G1 X126.248 Y119.34 E.02375
G1 X118.34 Y127.248 E.4946
G1 X118.878 Y127.248 E.02379
G1 X126.248 Y119.878 E.46095
G1 X126.248 Y120.415 E.02375
G1 X119.415 Y127.248 E.42737
G1 X119.952 Y127.248 E.02375
G1 X126.248 Y120.952 E.39378
G1 X126.248 Y121.489 E.02375
G1 X120.489 Y127.248 E.36019
G1 X121.027 Y127.248 E.02379
G1 X126.248 Y122.027 E.32654
G1 X126.248 Y122.564 E.02375
G1 X121.564 Y127.248 E.29296
G1 X122.101 Y127.248 E.02375
G1 X126.248 Y123.101 E.25937
G1 X126.248 Y123.638 E.02375
G1 X122.638 Y127.248 E.22579
G1 X123.176 Y127.248 E.02379
G1 X126.248 Y124.176 E.19214
G1 X126.248 Y124.713 E.02375
G1 X123.713 Y127.248 E.15855
G1 X124.25 Y127.248 E.02375
G1 X126.248 Y125.25 E.12496
G1 X126.248 Y127.248 E.08836
G1 X124.788 Y127.248 E.06457
G1 X126.113 Y125.922 E.0829
G1 X126.113 Y125.922 F9000
G1 X125.877 Y126.805
;WIDTH:0.535469
G1 F3600
G1 X125.835 Y126.763 E.00329
G1 X125.778 Y126.778 E.00326
G1 X125.763 Y126.835 E.00326
G1 X125.805 Y126.877 E.00329
G1 X125.862 Y126.862 E.00326
;LAYER_CHANGE
;Z:0.76
;HEIGHT:0.28
;BEFORE_LAYER_CHANGE
G92 E0
;0.76


G1 E-3.5 F3600
;WIPE_START
G1 F7200
G1 X125.805 Y126.877 E-.028
G1 X125.763 Y126.835 E-.02821
G1 X125.778 Y126.778 E-.028
