; generated by PrusaSlicer 2.9.0 on 2025-01-20 at 15:57:47 UTC

; 

; external perimeters extrusion width = 0.42mm
; perimeters extrusion width = 0.44mm
; infill extrusion width = 0.44mm
; solid infill extrusion width = 0.44mm
; top infill extrusion width = 0.40mm
; support material extrusion width = 0.36mm
; first layer extrusion width = 0.42mm

M73 P0 R31

; printing object sniffer_black_part_legs.stl id:0 copy 0
; stop printing object sniffer_black_part_legs.stl id:0 copy 0

;TYPE:Custom
START_PRINT EXTRUDER_TEMP=210 BED_TEMP=60
G21 ; set units to millimeters
G90 ; use absolute coordinates
M83 ; use relative distances for extrusion
; Filament gcode
M107
;LAYER_CHANGE
;Z:0.2
;HEIGHT:0.2
G1 E-5 F3600
G1 Z.2 F9000
G1 X95.058 Y84.405
G1 Z.2
G1 E5 F2400
M204 S500
;TYPE:Skirt/Brim
;WIDTH:0.42
G1 F1200
G1 X97.5 Y83.557 E.08105
G1 X137.5 Y83.557 E1.25417
G1 X139.22 Y83.952 E.05533
G1 X140.595 Y85.058 E.05533
G1 X141.443 Y87.5 E.08105
G1 X141.443 Y147.5 E1.88126
G1 X141.048 Y149.22 E.05533
G1 X139.942 Y150.595 E.05533
G1 X137.5 Y151.443 E.08105
G1 X97.5 Y151.443 E1.25417
G1 X95.78 Y151.048 E.05533
G1 X94.405 Y149.942 E.05533
G1 X93.557 Y147.5 E.08105
G1 X93.557 Y87.5 E1.88126
G1 X93.952 Y85.78 E.05533
G1 X95.02 Y84.451 E.05346
G1 X95.02 Y84.451 F9000
G1 X95.326 Y84.715
G1 F1200
G1 X95.425 Y84.601 E.00473
G1 X97.5 Y83.934 E.06834
G1 X137.5 Y83.934 E1.25417
G1 X139.13 Y84.329 E.05259
G1 X140.399 Y85.425 E.05257
G1 X141.066 Y87.5 E.06834
G1 X141.066 Y147.5 E1.88126
G1 X140.671 Y149.13 E.05259
G1 X139.575 Y150.399 E.05257
G1 X137.5 Y151.066 E.06834
G1 X97.5 Y151.066 E1.25417
G1 X95.87 Y150.671 E.05259
M73 P1 R31
G1 X94.601 Y149.575 E.05257
G1 X93.934 Y147.5 E.06834
G1 X93.934 Y87.5 E1.88126
G1 X94.329 Y85.87 E.05259
G1 X95.287 Y84.761 E.04595
G1 X95.287 Y84.761 F9000
G1 X95.578 Y85.034
G1 F1200
G1 X95.789 Y84.809 E.00967
G1 X97.5 Y84.311 E.05587
G1 X137.5 Y84.311 E1.25417
G1 X139.035 Y84.705 E.04969
G1 X140.191 Y85.789 E.04969
G1 X140.689 Y87.5 E.05587
G1 X140.689 Y147.5 E1.88126
G1 X140.295 Y149.035 E.04969
M73 P1 R30
G1 X139.211 Y150.191 E.04969
G1 X137.5 Y150.689 E.05587
G1 X97.5 Y150.689 E1.25417
G1 X95.965 Y150.295 E.04969
G1 X94.809 Y149.211 E.04969
G1 X94.311 Y147.5 E.05587
G1 X94.311 Y87.5 E1.88126
G1 X94.705 Y85.965 E.04969
G1 X95.537 Y85.078 E.03813
G1 E-3.5 F3600
;WIPE_START
G1 F7200
G1 X95.578 Y85.034 E-.02857
G1 X95.789 Y84.809 E-.14652
G1 X97.5 Y84.311 E-.84645
G1 X98.507 Y84.311 E-.47846
;WIPE_END
; printing object sniffer_black_part_legs.stl id:0 copy 0
G1 X98.564 Y146.436 F9000
G1 E5 F2400
;TYPE:Perimeter
;WIDTH:0.419999
G1 F1200
G1 X98.564 Y88.564 E1.81453
G1 X136.436 Y88.564 E1.18745
M73 P2 R30
G1 X136.436 Y107.5 E.59372
G1 X136.436 Y146.436 E1.22081
G1 X98.624 Y146.436 E1.18557
G1 X98.624 Y146.436 F9000
G1 X98.187 Y146.813
G1 F1200
G1 X98.187 Y88.187 E1.83817
G1 X136.813 Y88.187 E1.21109
G1 X136.813 Y107.5 E.60554
G1 X136.813 Y146.813 E1.23263
G1 X98.247 Y146.813 E1.20921
G1 X97.81 Y147.19 F9000
;TYPE:External perimeter
G1 F1200
G1 X97.81 Y87.81 E1.86182
G1 X137.19 Y87.81 E1.23473
M73 P3 R30
G1 X137.19 Y107.5 E.61737
G1 X137.19 Y147.19 E1.24445
G1 X97.87 Y147.19 E1.23285
G1 E-3.5 F3600
;WIPE_START
G1 F7200
G1 X97.81 Y147.19 E-.0285
G1 X97.81 Y144.092 E-1.4715
;WIPE_END
G1 X136.315 Y89.451 F9000
G1 E5 F2400
;TYPE:Solid infill
;WIDTH:0.421643
G1 F1200
G1 X135.719 Y88.855 E.02654
G1 X135.184 Y88.855 E.01685
G1 X136.145 Y89.816 E.0428
G1 X136.145 Y90.352 E.01688
G1 X134.648 Y88.855 E.06667
G1 X134.112 Y88.855 E.01688
G1 X136.145 Y90.888 E.09054
G1 X136.145 Y91.423 E.01685
G1 X133.577 Y88.855 E.11437
G1 X133.041 Y88.855 E.01688
G1 X136.145 Y91.959 E.13824
G1 X136.145 Y92.494 E.01685
G1 X132.506 Y88.855 E.16206
G1 X131.97 Y88.855 E.01688
G1 X136.145 Y93.03 E.18593
G1 X136.145 Y93.566 E.01688
G1 X131.434 Y88.855 E.2098
G1 X130.899 Y88.855 E.01685
G1 X136.145 Y94.101 E.23363
G1 X136.145 Y94.637 E.01688
G1 X130.363 Y88.855 E.2575
G1 X129.828 Y88.855 E.01685
G1 X136.145 Y95.172 E.28133
G1 X136.145 Y95.708 E.01688
G1 X129.292 Y88.855 E.3052
G1 X128.756 Y88.855 E.01688
G1 X136.145 Y96.244 E.32907
G1 X136.145 Y96.779 E.01685
G1 X128.221 Y88.855 E.35289
G1 X127.685 Y88.855 E.01688
G1 X136.145 Y97.315 E.37677
G1 X136.145 Y97.85 E.01685
G1 X127.15 Y88.855 E.40059
G1 X126.614 Y88.855 E.01688
G1 X136.145 Y98.386 E.42446
G1 X136.145 Y98.922 E.01688
G1 X126.078 Y88.855 E.44833
G1 X125.543 Y88.855 E.01685
G1 X136.145 Y99.457 E.47216
G1 X136.145 Y99.993 E.01688
G1 X125.007 Y88.855 E.49603
G1 X124.472 Y88.855 E.01685
M73 P4 R30
G1 X136.145 Y100.528 E.51986
G1 X136.145 Y101.064 E.01688
G1 X123.936 Y88.855 E.54373
G1 X123.4 Y88.855 E.01688
G1 X136.145 Y101.6 E.5676
G1 X136.145 Y102.135 E.01685
G1 X122.865 Y88.855 E.59142
G1 X122.329 Y88.855 E.01688
G1 X136.145 Y102.671 E.61529
G1 X136.145 Y103.206 E.01685
G1 X121.794 Y88.855 E.63912
G1 X121.258 Y88.855 E.01688
G1 X136.145 Y103.742 E.66299
G1 X136.145 Y104.278 E.01688
G1 X120.722 Y88.855 E.68686
G1 X120.187 Y88.855 E.01685
G1 X136.145 Y104.813 E.71069
G1 X136.145 Y105.349 E.01688
G1 X119.651 Y88.855 E.73456
G1 X119.116 Y88.855 E.01685
G1 X136.145 Y105.884 E.75839
G1 X136.145 Y106.42 E.01688
G1 X118.58 Y88.855 E.78226
G1 X118.044 Y88.855 E.01688
M73 P4 R29
G1 X136.145 Y106.956 E.80613
G1 X136.145 Y107.491 E.01685
G1 X117.509 Y88.855 E.82995
G1 X116.973 Y88.855 E.01688
G1 X136.145 Y108.027 E.85382
G1 X136.145 Y108.562 E.01685
G1 X116.438 Y88.855 E.87765
G1 X115.902 Y88.855 E.01688
G1 X136.145 Y109.098 E.90152
G1 X136.145 Y109.634 E.01688
M73 P5 R29
G1 X115.366 Y88.855 E.92539
G1 X114.831 Y88.855 E.01685
G1 X136.145 Y110.169 E.94922
G1 X136.145 Y110.705 E.01688
G1 X114.295 Y88.855 E.97309
G1 X113.76 Y88.855 E.01685
G1 X136.145 Y111.24 E.99691
G1 X136.145 Y111.776 E.01688
G1 X113.224 Y88.855 E1.02078
G1 X112.689 Y88.855 E.01685
G1 X136.145 Y112.311 E1.04461
G1 X136.145 Y112.847 E.01688
G1 X112.153 Y88.855 E1.06848
G1 X111.617 Y88.855 E.01688
G1 X136.145 Y113.383 E1.09235
G1 X136.145 Y113.918 E.01685
G1 X111.082 Y88.855 E1.11618
G1 X110.546 Y88.855 E.01688
G1 X136.145 Y114.454 E1.14005
G1 X136.145 Y114.989 E.01685
G1 X110.011 Y88.855 E1.16388
G1 X109.475 Y88.855 E.01688
M73 P6 R29
G1 X136.145 Y115.525 E1.18775
G1 X136.145 Y116.061 E.01688
G1 X108.939 Y88.855 E1.21162
G1 X108.404 Y88.855 E.01685
G1 X136.145 Y116.596 E1.23544
G1 X136.145 Y117.132 E.01688
G1 X107.868 Y88.855 E1.25931
G1 X107.333 Y88.855 E.01685
G1 X136.145 Y117.667 E1.28314
G1 X136.145 Y118.203 E.01688
G1 X106.797 Y88.855 E1.30701
G1 X106.261 Y88.855 E.01688
G1 X136.145 Y118.739 E1.33088
G1 X136.145 Y119.274 E.01685
G1 X105.726 Y88.855 E1.35471
G1 X105.19 Y88.855 E.01688
G1 X136.145 Y119.81 E1.37858
G1 X136.145 Y120.345 E.01685
M73 P7 R29
G1 X104.655 Y88.855 E1.4024
G1 X104.119 Y88.855 E.01688
G1 X136.145 Y120.881 E1.42628
G1 X136.145 Y121.417 E.01688
G1 X103.583 Y88.855 E1.45015
G1 X103.048 Y88.855 E.01685
G1 X136.145 Y121.952 E1.47397
G1 X136.145 Y122.488 E.01688
G1 X102.512 Y88.855 E1.49784
G1 X101.977 Y88.855 E.01685
G1 X136.145 Y123.023 E1.52167
G1 X136.145 Y123.559 E.01688
G1 X101.441 Y88.855 E1.54554
G1 X100.905 Y88.855 E.01688
M73 P7 R28
G1 X136.145 Y124.095 E1.56941
G1 X136.145 Y124.63 E.01685
M73 P8 R28
G1 X100.37 Y88.855 E1.59324
G1 X99.834 Y88.855 E.01688
G1 X136.145 Y125.166 E1.61711
G1 X136.145 Y125.701 E.01685
G1 X99.299 Y88.855 E1.64093
G1 X98.855 Y88.855 E.01398
G1 X98.855 Y88.946 E.00287
G1 X136.145 Y126.237 E1.66073
G1 X136.145 Y126.773 E.01688
G1 X98.855 Y89.482 E1.66073
G1 X98.855 Y90.017 E.01685
G1 X136.145 Y127.308 E1.66073
G1 X136.145 Y127.844 E.01688
G1 X98.855 Y90.553 E1.66073
G1 X98.855 Y91.088 E.01685
M73 P9 R28
G1 X136.145 Y128.379 E1.66073
G1 X136.145 Y128.915 E.01688
G1 X98.855 Y91.624 E1.66073
G1 X98.855 Y92.16 E.01688
G1 X136.145 Y129.451 E1.66073
G1 X136.145 Y129.986 E.01685
G1 X98.855 Y92.695 E1.66073
G1 X98.855 Y93.231 E.01688
G1 X136.145 Y130.522 E1.66073
G1 X136.145 Y131.057 E.01685
G1 X98.855 Y93.766 E1.66073
G1 X98.855 Y94.302 E.01688
G1 X136.145 Y131.593 E1.66073
G1 X136.145 Y132.129 E.01688
M73 P10 R28
G1 X98.855 Y94.838 E1.66073
G1 X98.855 Y95.373 E.01685
G1 X136.145 Y132.664 E1.66073
G1 X136.145 Y133.2 E.01688
G1 X98.855 Y95.909 E1.66073
G1 X98.855 Y96.444 E.01685
G1 X136.145 Y133.735 E1.66073
G1 X136.145 Y134.271 E.01688
G1 X98.855 Y96.98 E1.66073
G1 X98.855 Y97.515 E.01685
G1 X136.145 Y134.806 E1.66073
G1 X136.145 Y135.342 E.01688
G1 X98.855 Y98.051 E1.66073
G1 X98.855 Y98.587 E.01688
M73 P11 R27
G1 X136.145 Y135.878 E1.66073
G1 X136.145 Y136.413 E.01685
G1 X98.855 Y99.122 E1.66073
G1 X98.855 Y99.658 E.01688
G1 X136.145 Y136.949 E1.66073
G1 X136.145 Y137.484 E.01685
G1 X98.855 Y100.193 E1.66073
G1 X98.855 Y100.729 E.01688
G1 X136.145 Y138.02 E1.66073
G1 X136.145 Y138.556 E.01688
G1 X98.855 Y101.265 E1.66073
G1 X98.855 Y101.8 E.01685
G1 X136.145 Y139.091 E1.66073
G1 X136.145 Y139.627 E.01688
M73 P12 R27
G1 X98.855 Y102.336 E1.66073
G1 X98.855 Y102.871 E.01685
G1 X136.145 Y140.162 E1.66073
G1 X136.145 Y140.698 E.01688
G1 X98.855 Y103.407 E1.66073
G1 X98.855 Y103.943 E.01688
G1 X136.145 Y141.234 E1.66073
G1 X136.145 Y141.769 E.01685
G1 X98.855 Y104.478 E1.66073
G1 X98.855 Y105.014 E.01688
G1 X136.145 Y142.305 E1.66073
G1 X136.145 Y142.84 E.01685
G1 X98.855 Y105.549 E1.66073
G1 X98.855 Y106.085 E.01688
M73 P13 R27
G1 X136.145 Y143.376 E1.66073
G1 X136.145 Y143.912 E.01688
G1 X98.855 Y106.621 E1.66073
G1 X98.855 Y107.156 E.01685
G1 X136.145 Y144.447 E1.66073
G1 X136.145 Y144.983 E.01688
G1 X98.855 Y107.692 E1.66073
G1 X98.855 Y108.227 E.01685
G1 X136.145 Y145.518 E1.66073
G1 X136.145 Y146.054 E.01688
G1 X98.855 Y108.763 E1.66073
G1 X98.855 Y109.299 E.01688
G1 X135.701 Y146.145 E1.64093
G1 X135.166 Y146.145 E.01685
M73 P14 R27
G1 X98.855 Y109.834 E1.61711
G1 X98.855 Y110.37 E.01688
G1 X134.63 Y146.145 E1.59324
G1 X134.095 Y146.145 E.01685
M73 P14 R26
G1 X98.855 Y110.905 E1.56941
G1 X98.855 Y111.441 E.01688
G1 X133.559 Y146.145 E1.54554
G1 X133.023 Y146.145 E.01688
G1 X98.855 Y111.977 E1.52167
G1 X98.855 Y112.512 E.01685
G1 X132.488 Y146.145 E1.49784
G1 X131.952 Y146.145 E.01688
G1 X98.855 Y113.048 E1.47397
G1 X98.855 Y113.583 E.01685
G1 X131.417 Y146.145 E1.45015
G1 X130.881 Y146.145 E.01688
M73 P15 R26
G1 X98.855 Y114.119 E1.42628
G1 X98.855 Y114.655 E.01688
G1 X130.345 Y146.145 E1.4024
G1 X129.81 Y146.145 E.01685
G1 X98.855 Y115.19 E1.37858
G1 X98.855 Y115.726 E.01688
G1 X129.274 Y146.145 E1.35471
G1 X128.739 Y146.145 E.01685
G1 X98.855 Y116.261 E1.33088
G1 X98.855 Y116.797 E.01688
G1 X128.203 Y146.145 E1.30701
G1 X127.667 Y146.145 E.01688
G1 X98.855 Y117.333 E1.28314
G1 X98.855 Y117.868 E.01685
G1 X127.132 Y146.145 E1.25931
G1 X126.596 Y146.145 E.01688
G1 X98.855 Y118.404 E1.23544
G1 X98.855 Y118.939 E.01685
M73 P16 R26
G1 X126.061 Y146.145 E1.21162
G1 X125.525 Y146.145 E.01688
G1 X98.855 Y119.475 E1.18775
G1 X98.855 Y120.01 E.01685
G1 X124.99 Y146.145 E1.16392
G1 X124.454 Y146.145 E.01688
G1 X98.855 Y120.546 E1.14005
G1 X98.855 Y121.082 E.01688
G1 X123.918 Y146.145 E1.11618
G1 X123.383 Y146.145 E.01685
G1 X98.855 Y121.617 E1.09235
G1 X98.855 Y122.153 E.01688
G1 X122.847 Y146.145 E1.06848
G1 X122.312 Y146.145 E.01685
G1 X98.855 Y122.688 E1.04466
G1 X98.855 Y123.224 E.01688
G1 X121.776 Y146.145 E1.02078
G1 X121.24 Y146.145 E.01688
G1 X98.855 Y123.76 E.99691
G1 X98.855 Y124.295 E.01685
M73 P17 R26
G1 X120.705 Y146.145 E.97309
G1 X120.169 Y146.145 E.01688
G1 X98.855 Y124.831 E.94922
G1 X98.855 Y125.366 E.01685
G1 X119.634 Y146.145 E.92539
G1 X119.098 Y146.145 E.01688
G1 X98.855 Y125.902 E.90152
G1 X98.855 Y126.438 E.01688
G1 X118.562 Y146.145 E.87765
G1 X118.027 Y146.145 E.01685
M73 P17 R25
G1 X98.855 Y126.973 E.85382
G1 X98.855 Y127.509 E.01688
G1 X117.491 Y146.145 E.82995
G1 X116.956 Y146.145 E.01685
G1 X98.855 Y128.044 E.80613
G1 X98.855 Y128.58 E.01688
G1 X116.42 Y146.145 E.78226
G1 X115.884 Y146.145 E.01688
G1 X98.855 Y129.116 E.75839
G1 X98.855 Y129.651 E.01685
G1 X115.349 Y146.145 E.73456
G1 X114.813 Y146.145 E.01688
G1 X98.855 Y130.187 E.71069
G1 X98.855 Y130.722 E.01685
G1 X114.278 Y146.145 E.68686
G1 X113.742 Y146.145 E.01688
G1 X98.855 Y131.258 E.66299
G1 X98.855 Y131.794 E.01688
M73 P18 R25
G1 X113.206 Y146.145 E.63912
G1 X112.671 Y146.145 E.01685
G1 X98.855 Y132.329 E.61529
G1 X98.855 Y132.865 E.01688
G1 X112.135 Y146.145 E.59142
G1 X111.6 Y146.145 E.01685
G1 X98.855 Y133.4 E.5676
G1 X98.855 Y133.936 E.01688
G1 X111.064 Y146.145 E.54373
G1 X110.528 Y146.145 E.01688
G1 X98.855 Y134.472 E.51986
G1 X98.855 Y135.007 E.01685
G1 X109.993 Y146.145 E.49603
G1 X109.457 Y146.145 E.01688
G1 X98.855 Y135.543 E.47216
G1 X98.855 Y136.078 E.01685
G1 X108.922 Y146.145 E.44833
G1 X108.386 Y146.145 E.01688
G1 X98.855 Y136.614 E.42446
G1 X98.855 Y137.15 E.01688
G1 X107.85 Y146.145 E.40059
G1 X107.315 Y146.145 E.01685
G1 X98.855 Y137.685 E.37677
G1 X98.855 Y138.221 E.01688
G1 X106.779 Y146.145 E.35289
G1 X106.244 Y146.145 E.01685
G1 X98.855 Y138.756 E.32907
G1 X98.855 Y139.292 E.01688
G1 X105.708 Y146.145 E.3052
G1 X105.172 Y146.145 E.01688
G1 X98.855 Y139.828 E.28133
G1 X98.855 Y140.363 E.01685
G1 X104.637 Y146.145 E.2575
G1 X104.101 Y146.145 E.01688
G1 X98.855 Y140.899 E.23363
G1 X98.855 Y141.434 E.01685
G1 X103.566 Y146.145 E.2098
G1 X103.03 Y146.145 E.01688
G1 X98.855 Y141.97 E.18593
G1 X98.855 Y142.505 E.01685
G1 X102.495 Y146.145 E.16211
G1 X101.959 Y146.145 E.01688
G1 X98.855 Y143.041 E.13824
G1 X98.855 Y143.577 E.01688
G1 X101.423 Y146.145 E.11437
G1 X100.888 Y146.145 E.01685
G1 X98.855 Y144.112 E.09054
G1 X98.855 Y144.648 E.01688
G1 X100.352 Y146.145 E.06667
G1 X99.817 Y146.145 E.01685
G1 X98.855 Y145.183 E.04284
G1 X98.855 Y145.719 E.01688
G1 X99.451 Y146.315 E.02654
M106 S255
;LAYER_CHANGE
;Z:0.48
;HEIGHT:0.28
;BEFORE_LAYER_CHANGE
G92 E0
;0.48


G1 E-3.5 F3600
;WIPE_START
G1 F7200
G1 X98.855 Y145.719 E-.40036
G1 X98.855 Y145.183 E-.2546
G1 X99.817 Y146.145 E-.64622
G1 X100.236 Y146.145 E-.19882
;WIPE_END
G1 Z.48 F9000
;AFTER_LAYER_CHANGE
;0.48
M104 S205 ; set temperature
G1 X98.46 Y146.54
G1 E5 F2400
;TYPE:Perimeter
;WIDTH:0.44
G1 F3600
G1 X98.46 Y88.46 E2.56862
G1 X136.54 Y88.46 E1.68411
G1 X136.54 Y107.5 E.84206
G1 X136.54 Y146.54 E1.72657
G1 X98.52 Y146.54 E1.68146
M73 P19 R25
G1 X98.52 Y146.54 F9000
G1 X98.08 Y146.92
G1 F3600
G1 X98.08 Y88.08 E2.60224
G1 X136.92 Y88.08 E1.71772
G1 X136.92 Y107.5 E.85886
G1 X136.92 Y146.92 E1.74337
G1 X98.14 Y146.92 E1.71507
G1 X97.71 Y147.29 F9000
;TYPE:External perimeter
;WIDTH:0.42
G1 F1800
G1 X97.71 Y87.71 E2.49625
G1 X137.29 Y87.71 E1.6583
G1 X137.29 Y107.5 E.82915
G1 X137.29 Y147.29 E1.6671
G1 X97.77 Y147.29 E1.65579
G1 E-3.5 F3600
;WIPE_START
G1 F7200
G1 X97.71 Y147.29 E-.0285
G1 X97.71 Y144.192 E-1.4715
;WIPE_END
G1 X98.855 Y88.783 F9000
G1 E5 F2400
;TYPE:Solid infill
;WIDTH:0.532175
G1 F3600
G1 X98.814 Y88.741 E.00323
G1 X98.757 Y88.757 E.00325
G1 X98.741 Y88.814 E.00325
G1 X98.783 Y88.855 E.00323
G1 X98.84 Y88.84 E.00324
;WIDTH:0.44
G1 X99.447 Y88.752 E.02713
G1 X98.752 Y89.447 E.04347
G1 X98.752 Y89.984 E.02375
G1 X99.984 Y88.752 E.07705
G1 X100.522 Y88.752 E.02379
G1 X98.752 Y90.522 E.1107
G1 X98.752 Y91.059 E.02375
G1 X101.059 Y88.752 E.14429
G1 X101.596 Y88.752 E.02375
G1 X98.752 Y91.596 E.17788
G1 X98.752 Y92.133 E.02375
G1 X102.133 Y88.752 E.21146
G1 X102.671 Y88.752 E.02379
G1 X98.752 Y92.671 E.24511
G1 X98.752 Y93.208 E.02375
G1 X103.208 Y88.752 E.2787
G1 X103.745 Y88.752 E.02375
G1 X98.752 Y93.745 E.31228
G1 X98.752 Y94.282 E.02375
G1 X104.282 Y88.752 E.34587
G1 X104.82 Y88.752 E.02379
G1 X98.752 Y94.82 E.37952
G1 X98.752 Y95.357 E.02375
G1 X105.357 Y88.752 E.41311
G1 X105.894 Y88.752 E.02375
G1 X98.752 Y95.894 E.44669
G1 X98.752 Y96.432 E.02379
G1 X106.432 Y88.752 E.48034
G1 X106.969 Y88.752 E.02375
G1 X98.752 Y96.969 E.51393
G1 X98.752 Y97.506 E.02375
G1 X107.506 Y88.752 E.54751
G1 X108.043 Y88.752 E.02375
G1 X98.752 Y98.043 E.5811
G1 X98.752 Y98.581 E.02379
G1 X108.581 Y88.752 E.61475
G1 X109.118 Y88.752 E.02375
G1 X98.752 Y99.118 E.64834
G1 X98.752 Y99.655 E.02375
G1 X109.655 Y88.752 E.68192
G1 X110.193 Y88.752 E.02379
G1 X98.752 Y100.192 E.71554
G1 X98.752 Y100.73 E.02379
