; generated by PrusaSlicer 2.9.0 on 2025-01-20 at 15:57:46 UTC

; 

; external perimeters extrusion width = 0.42mm
; perimeters extrusion width = 0.44mm
; infill extrusion width = 0.44mm
; solid infill extrusion width = 0.44mm
; top infill extrusion width = 0.40mm
; support material extrusion width = 0.36mm
; first layer extrusion width = 0.42mm

; external perimeters extrusion width = 0.42mm
; perimeters extrusion width = 0.44mm
; infill extrusion width = 0.44mm
; solid infill extrusion width = 0.44mm
; top infill extrusion width = 0.40mm
; support material extrusion width = 0.36mm
; first layer extrusion width = 0.42mm

M73 P0 R95

; printing object sniffer_red_part_head.stl id:0 copy 0
; stop printing object sniffer_red_part_head.stl id:0 copy 0
; printing object sniffer_red_part_torso.stl id:1 copy 0
; stop printing object sniffer_red_part_torso.stl id:1 copy 0

;TYPE:Custom
START_PRINT EXTRUDER_TEMP=210 BED_TEMP=60
G21 ; set units to millimeters
G90 ; use absolute coordinates
M83 ; use relative distances for extrusion
; Filament gcode
M107
;LAYER_CHANGE
;Z:0.2
;HEIGHT:0.2
G1 E-5 F3600
G1 Z.2 F9000
G1 X78.147 Y98.005
G1 Z.2
G1 E5 F2400
M204 S500
;TYPE:Skirt/Brim
;WIDTH:0.42
G1 F1200
G1 X110.147 Y79.418 E1.16031
G1 X112.128 Y78.885 E.06432
G1 X155.393 Y78.885 E1.35654
G1 X157.113 Y79.28 E.05533
G1 X158.488 Y80.386 E.05533
G1 X159.335 Y82.828 E.08104
G1 X159.335 Y147.272 E2.0206
G1 X158.94 Y148.992 E.05533
G1 X157.133 Y150.81 E.08037
G1 X141.507 Y158.5 E.54606
G1 X139.766 Y158.905 E.05605
G1 X127.497 Y158.905 E.38469
G1 X125.876 Y158.556 E.05199
G1 X78.506 Y137.179 E1.62949
G1 X77.101 Y136.112 E.05532
G1 X76.302 Y134.538 E.05535
G1 X76.185 Y133.585 E.0301
G1 X76.185 Y101.415 E1.00867
G1 X76.58 Y99.695 E.05533
G1 X78.106 Y98.049 E.07038
G1 X78.106 Y98.049 F9000
G1 X78.337 Y98.331
G1 F1200
G1 X110.337 Y79.744 E1.16031
G1 X112.128 Y79.262 E.05815
G1 X155.393 Y79.262 E1.35654
G1 X157.023 Y79.656 E.05258
G1 X158.292 Y80.752 E.05257
G1 X158.958 Y82.828 E.06836
G1 X158.958 Y147.272 E2.0206
G1 X158.564 Y148.902 E.05258
G1 X156.967 Y150.472 E.07022
G1 X141.341 Y158.162 E.54606
G1 X139.766 Y158.528 E.0507
G1 X127.497 Y158.528 E.38469
G1 X126.031 Y158.212 E.04702
G1 X78.661 Y136.835 E1.62949
G1 X77.337 Y135.805 E.0526
G1 X76.562 Y133.585 E.07373
G1 X76.562 Y101.415 E1.00867
G1 X76.956 Y99.785 E.05258
G1 X78.295 Y98.375 E.06097
G1 X78.295 Y98.375 F9000
G1 X78.526 Y98.657
G1 F1200
G1 X110.526 Y80.07 E1.16031
G1 X112.128 Y79.639 E.05202
G1 X155.393 Y79.639 E1.35654
G1 X156.927 Y80.033 E.04966
M73 P0 R94
G1 X158.083 Y81.117 E.04969
G1 X158.581 Y82.828 E.05587
G1 X158.581 Y147.272 E2.0206
G1 X158.187 Y148.807 E.04969
G1 X156.8 Y150.133 E.06016
G1 X141.174 Y157.823 E.54606
G1 X139.766 Y158.151 E.04533
G1 X127.497 Y158.151 E.38469
G1 X126.186 Y157.869 E.04205
G1 X78.816 Y136.492 E1.62949
G1 X77.579 Y135.501 E.0497
G1 X76.939 Y133.585 E.06334
G1 X76.939 Y101.415 E1.00867
G1 X77.333 Y99.88 E.04969
G1 X78.484 Y98.7 E.05168
G1 E-3.5 F3600
;WIPE_START
G1 F7200
G1 X78.526 Y98.657 E-.02855
G1 X81.205 Y97.101 E-1.47145
;WIPE_END
; printing object sniffer_red_part_head.stl id:0 copy 0
G1 X89.389 Y122.233 F9000
G1 E5 F2400
;TYPE:Perimeter
;WIDTH:0.419999
G1 F1200
G1 X89.072 Y121.969 E.01293
G1 X88.535 Y121.389 E.02478
G1 X88.077 Y120.746 E.02475
G1 X87.705 Y120.05 E.02474
G1 X87.425 Y119.311 E.02478
G1 X87.222 Y118.424 E.02853
G1 X87.16 Y117.775 E.02044
G1 X87.176 Y116.971 E.02521
G1 X87.294 Y116.188 E.02483
G1 X87.511 Y115.428 E.02478
G1 X87.824 Y114.703 E.02476
G1 X88.227 Y114.024 E.02476
G1 X88.713 Y113.402 E.02475
G1 X89.275 Y112.847 E.02477
G1 X89.903 Y112.368 E.02476
G1 X90.587 Y111.974 E.02475
G1 X91.316 Y111.671 E.02475
G1 X92.078 Y111.463 E.02477
G1 X92.86 Y111.354 E.02476
G1 X93.65 Y111.346 E.02477
G1 X94.434 Y111.44 E.02476
G1 X95.2 Y111.632 E.02476
G1 X95.935 Y111.922 E.02477
G1 X96.627 Y112.302 E.02475
G1 X97.264 Y112.768 E.02475
G1 X97.837 Y113.312 E.02477
G1 X98.335 Y113.925 E.02476
G1 X98.751 Y114.596 E.02475
G1 X99.078 Y115.315 E.02477
G1 X99.31 Y116.07 E.02476
G1 X99.444 Y116.848 E.02475
G1 X99.477 Y117.637 E.02476
G1 X99.409 Y118.424 E.02477
G1 X99.24 Y119.195 E.02475
G1 X98.975 Y119.939 E.02476
G1 X98.617 Y120.643 E.02476
G1 X98.171 Y121.295 E.02477
G1 X97.646 Y121.885 E.02476
G1 X97.05 Y122.403 E.02476
G1 X96.392 Y122.84 E.02477
G1 X95.684 Y123.189 E.02475
G1 X94.937 Y123.446 E.02477
G1 X94.163 Y123.604 E.02477
G1 X93.376 Y123.662 E.02474
G1 X92.587 Y123.62 E.02477
G1 X91.811 Y123.476 E.02475
G1 X91.059 Y123.235 E.02476
G1 X90.344 Y122.899 E.02477
G1 X89.678 Y122.475 E.02475
G1 X89.435 Y122.272 E.00993
G1 X89.435 Y122.272 F9000
G1 X89.627 Y121.943
G1 F1200
G1 X89.316 Y121.682 E.01273
G1 X88.814 Y121.136 E.02326
G1 X88.386 Y120.53 E.02326
G1 X88.039 Y119.875 E.02324
G1 X87.779 Y119.181 E.02324
G1 X87.598 Y118.388 E.0255
G1 X87.535 Y117.739 E.02044
G1 X87.552 Y116.982 E.02374
G1 X87.666 Y116.248 E.02329
G1 X87.873 Y115.536 E.02325
G1 X88.169 Y114.856 E.02325
G1 X88.549 Y114.219 E.02326
G1 X89.008 Y113.637 E.02324
G1 X89.537 Y113.118 E.02324
G1 X90.129 Y112.67 E.02328
G1 X90.772 Y112.303 E.02321
G1 X91.458 Y112.02 E.02327
G1 X92.174 Y111.827 E.02325
G1 X92.909 Y111.728 E.02325
G1 X93.65 Y111.723 E.02323
G1 X94.386 Y111.814 E.02325
G1 X95.104 Y111.997 E.02323
G1 X95.793 Y112.271 E.02325
G1 X96.442 Y112.631 E.02327
G1 X97.039 Y113.071 E.02325
G1 X97.574 Y113.583 E.02322
G1 X98.04 Y114.16 E.02325
G1 X98.429 Y114.792 E.02327
G1 X98.733 Y115.468 E.02324
G1 X98.948 Y116.177 E.02323
G1 X99.071 Y116.908 E.02324
G1 X99.1 Y117.649 E.02325
G1 X99.033 Y118.388 E.02327
G1 X98.873 Y119.112 E.02325
G1 X98.621 Y119.809 E.02324
G1 X98.282 Y120.469 E.02326
G1 X97.862 Y121.079 E.02322
G1 X97.367 Y121.631 E.02325
G1 X96.805 Y122.115 E.02326
G1 X96.186 Y122.524 E.02326
G1 X95.52 Y122.85 E.02325
G1 X94.818 Y123.088 E.02324
G1 X94.091 Y123.234 E.02325
G1 X93.352 Y123.286 E.02323
G1 X92.611 Y123.243 E.02327
G1 X91.883 Y123.106 E.02323
G1 X91.178 Y122.877 E.02324
G1 X90.508 Y122.559 E.02325
G1 X89.884 Y122.159 E.02324
G1 X89.673 Y121.982 E.00864
G1 X89.673 Y121.982 F9000
G1 X89.868 Y121.655 Z0
;TYPE:External perimeter
G1 F1200
G1 X89.561 Y121.395 Z.004 E.00024
G1 X89.093 Y120.882 Z.01 E.00112
G1 X88.696 Y120.315 Z.017 E.00183
G1 X88.374 Y119.701 Z.023 E.00254
G1 X88.133 Y119.051 Z.03 E.00325
G1 X87.977 Y118.375 Z.036 E.00396
G1 X87.973 Y118.351 Z.037 E.00014
G1 X87.91 Y117.703 Z.043 E.00437
G1 X87.929 Y116.993 Z.049 E.00551
G1 X88.039 Y116.308 Z.056 E.00609
G1 X88.234 Y115.643 Z.063 E.0068
G1 X88.513 Y115.008 Z.069 E.00751
G1 X88.872 Y114.415 Z.076 E.00822
G1 X89.303 Y113.872 Z.082 E.00893
G1 X89.799 Y113.389 Z.089 E.00963
G1 X90.354 Y112.973 Z.095 E.01035
G1 X90.957 Y112.631 Z.102 E.01106
G1 X91.599 Y112.37 Z.108 E.01176
G1 X92.269 Y112.192 Z.115 E.01248
G1 X92.957 Y112.102 Z.121 E.0132
G1 X93.65 Y112.1 Z.128 E.01389
G1 X94.338 Y112.188 Z.134 E.01461
G1 X95.009 Y112.362 Z.141 E.01531
G1 X95.652 Y112.621 Z.147 E.01602
G1 X96.257 Y112.959 Z.154 E.01673
G1 X96.813 Y113.373 Z.161 E.01744
G1 X97.312 Y113.854 Z.167 E.01815
G1 X97.746 Y114.395 Z.174 E.01887
G1 X98.106 Y114.987 Z.18 E.01956
G1 X98.388 Y115.62 Z.187 E.02028
G1 X98.587 Y116.284 Z.193 E.02099
G1 X98.699 Y116.969 Z.2 E.02173
G1 X98.7 Y117 Z.2 E.00097
G1 X98.723 Y117.661 E.02074
G1 X98.658 Y118.351 E.02173
G1 X98.505 Y119.028 E.02176
G1 X98.267 Y119.679 E.02173
G1 X97.948 Y120.294 E.02172
G1 X97.553 Y120.864 E.02174
G1 X97.088 Y121.378 E.02173
G1 X96.561 Y121.828 E.02173
G1 X95.981 Y122.208 E.02174
G1 X95.357 Y122.51 E.02174
G1 X94.699 Y122.73 E.02175
G1 X94.019 Y122.864 E.02173
G1 X93.328 Y122.91 E.02171
G1 X92.636 Y122.867 E.02174
G1 X91.955 Y122.736 E.02174
G1 X91.297 Y122.519 E.02172
G1 X90.671 Y122.22 E.02175
G1 X90.089 Y121.843 E.02174
G1 X89.868 Y121.655 E.0091
G1 X89.561 Y121.395 E.01237
G1 X89.093 Y120.882 E.02065
G1 X88.696 Y120.315 E.01987
G1 X88.374 Y119.701 E.0192
G1 X88.133 Y119.051 E.01849
G1 X87.977 Y118.375 E.01779
G1 X87.973 Y118.351 E.00062
G1 X87.91 Y117.703 E.01604
G1 X87.929 Y116.993 E.01676
G1 X88.039 Y116.308 E.01566
G1 X88.234 Y115.643 E.01493
G1 X88.513 Y115.008 E.01423
G1 X88.872 Y114.415 E.01352
G1 X89.303 Y113.872 E.01281
G1 X89.799 Y113.389 E.01208
G1 X90.354 Y112.973 E.01139
G1 X90.957 Y112.631 E.01068
G1 X91.599 Y112.37 E.00997
G1 X92.269 Y112.192 E.00926
G1 X92.957 Y112.102 E.00856
G1 X93.65 Y112.1 E.00784
G1 X94.338 Y112.188 E.00713
G1 X95.009 Y112.362 E.00642
G1 X95.652 Y112.621 E.00571
G1 X96.257 Y112.959 E.005
G1 X96.813 Y113.373 E.00429
G1 X97.312 Y113.854 E.00358
G1 X97.746 Y114.395 E.00287
G1 X98.106 Y114.987 E.00216
G1 X98.388 Y115.62 E.00145
G1 X98.587 Y116.284 E.00074
G1 X98.695 Y116.941 E.02088
G1 E-3.5 F3600
;WIPE_START
G1 F7200
G1 X98.7 Y117 E-.02813
G1 X98.723 Y117.661 E-.31417
G1 X98.658 Y118.351 E-.3292
G1 X98.505 Y119.028 E-.32968
G1 X98.267 Y119.679 E-.32924
G1 X98.103 Y119.996 E-.16958
;WIPE_END
G1 X86.743 Y133.245 F9000
G1 E5 F2400
;TYPE:Perimeter
;WIDTH:0.387501
G1 F1200
G1 X89.07 Y133.568 E.06731
;WIDTH:0.42412
G1 X92.386 Y134.029 E.10612
;WIDTH:0.460738
G1 X95.909 Y134.517 E.12356
G1 X95.853 Y134.936 E.01469
G1 X92.332 Y134.406 E.1237
;WIDTH:0.42412
G1 X89.021 Y133.909 E.10612
;WIDTH:0.387501
G1 X85.711 Y133.413 E.0959
;WIDTH:0.400751
G1 X85.649 Y133.378 E.00212
;WIDTH:0.450619
G1 X85.587 Y133.343 E.00241
;WIDTH:0.500487
G1 X85.525 Y133.308 E.00271
;WIDTH:0.550356
G1 X85.462 Y133.273 E.00304
;WIDTH:0.600224
G1 X85.4 Y133.238 E.0033
;WIDTH:0.650092
G1 X85.338 Y133.203 E.00359
G1 X85.408 Y133.187 E.00363
;WIDTH:0.600224
G1 X85.477 Y133.171 E.00328
;WIDTH:0.550356
G1 X85.547 Y133.155 E.00303
;WIDTH:0.500487
G1 X85.616 Y133.14 E.00269
;WIDTH:0.450619
G1 X85.685 Y133.124 E.0024
;WIDTH:0.400751
G1 X85.755 Y133.108 E.00214
;WIDTH:0.387501
G1 X86.684 Y133.237 E.02687
G1 X86.684 Y133.237 F9000
G1 X85.338 Y133.203
;WIDTH:0.650092
G1 F1200
G1 X83.944 Y133.002 E.07111
;WIDTH:0.61927
G1 X82.549 Y132.8 E.06755
;WIDTH:0.588448
G1 X82.527 Y132.797 E.00101
G1 X82.527 Y132.797 F9000
G1 X81.647 Y131.78
;WIDTH:0.611106
G1 F1200
G1 X81.646 Y131.789 E.00043
;WIDTH:0.60862
G1 X81.724 Y131.975 E.00949
;WIDTH:0.572839
G1 X81.802 Y132.161 E.00889
;WIDTH:0.537057
G1 X81.88 Y132.347 E.00829
;WIDTH:0.544739
G1 X82.204 Y132.572 E.01646
;WIDTH:0.588202
G1 X82.527 Y132.797 E.01785
G1 X81.976 Y132.733 E.02515
;WIDTH:0.544739
G1 X81.424 Y132.669 E.02319
;WIDTH:0.501275
G1 X81.468 Y132.437 E.009
;WIDTH:0.537886
G1 X81.527 Y132.218 E.00933
;WIDTH:0.574496
G1 X81.587 Y131.999 E.01004
;WIDTH:0.611106
G1 X81.631 Y131.838 E.00789
G1 X81.631 Y131.838 F9000
G1 X81.647 Y131.78
;WIDTH:0.618278
G1 F1200
G1 X81.667 Y131.395 E.01844
G1 E-3.5 F3600
;WIPE_START
G1 F7200
G1 X81.647 Y131.78 E-.18312
G1 X81.667 Y131.395 E-.18312
;WIPE_END
G1 E-1.13376 F3600
G1 X87.623 Y101.633 F9000
G1 E5 F2400
;WIDTH:0.387503
G1 F1200
G1 X85.755 Y101.892 E.05403
;WIDTH:0.400753
G1 X85.685 Y101.876 E.00214
;WIDTH:0.450622
G1 X85.616 Y101.86 E.0024
;WIDTH:0.500491
G1 X85.546 Y101.845 E.00272
;WIDTH:0.55036
G1 X85.477 Y101.829 E.00299
;WIDTH:0.600229
G1 X85.408 Y101.813 E.00328
;WIDTH:0.650098
G1 X85.338 Y101.797 E.00363
G1 X85.4 Y101.762 E.00359
;WIDTH:0.600229
G1 X85.462 Y101.727 E.0033
;WIDTH:0.55036
G1 X85.524 Y101.692 E.003
;WIDTH:0.500491
G1 X85.586 Y101.657 E.00271
;WIDTH:0.450622
G1 X85.648 Y101.622 E.00241
;WIDTH:0.400753
G1 X85.71 Y101.588 E.0021
;WIDTH:0.387503
G1 X89.021 Y101.091 E.09593
;WIDTH:0.424122
G1 X92.332 Y100.594 E.10612
;WIDTH:0.460741
G1 X95.853 Y100.064 E.1237
G1 X95.909 Y100.483 E.01469
G1 X92.386 Y100.971 E.12356
;WIDTH:0.424122
G1 X89.07 Y101.432 E.10612
;WIDTH:0.387503
G1 X87.682 Y101.625 E.04015
G1 E-3.5 F3600
;WIPE_START
G1 F7200
G1 X87.623 Y101.633 E-.02828
G1 X85.755 Y101.892 E-.89579
G1 X85.685 Y101.876 E-.03411
G1 X85.616 Y101.86 E-.03364
G1 X85.546 Y101.845 E-.034
G1 X85.477 Y101.829 E-.03364
G1 X85.408 Y101.813 E-.03364
G1 X85.338 Y101.797 E-.03411
G1 X85.4 Y101.762 E-.03382
G1 X85.462 Y101.727 E-.03382
G1 X85.524 Y101.692 E-.03382
G1 X85.586 Y101.657 E-.03382
G1 X85.648 Y101.622 E-.03382
G1 X85.71 Y101.588 E-.03359
G1 X86.064 Y101.535 E-.1701
;WIPE_END
G1 X81.646 Y103.211 F9000
G1 E5 F2400
;WIDTH:0.61276
G1 F1200
G1 X81.572 Y102.918 E.01432
;WIDTH:0.575598
G1 X81.498 Y102.624 E.01343
;WIDTH:0.538436
G1 X81.424 Y102.331 E.01245
;WIDTH:0.501273
G1 X81.658 Y102.295 E.00902
;WIDTH:0.535436
G1 X81.889 Y102.276 E.00949
;WIDTH:0.569599
G1 X82.12 Y102.257 E.01015
;WIDTH:0.603762
G1 X82.352 Y102.238 E.01086
G1 X82.195 Y102.376 E.00975
;WIDTH:0.569599
G1 X82.037 Y102.515 E.00922
;WIDTH:0.535436
G1 X81.88 Y102.653 E.00856
;WIDTH:0.538436
G1 X81.802 Y102.839 E.00831
;WIDTH:0.575598
G1 X81.724 Y103.025 E.00893
;WIDTH:0.61276
G1 X81.669 Y103.156 E.00673
G1 X81.669 Y103.156 F9000
G1 X81.646 Y103.211
;WIDTH:0.631758
G1 F1200
G1 X81.673 Y103.717 E.02481
G1 E-3.5 F3600
;WIPE_START
G1 F7200
G1 X81.646 Y103.211 E-.24069
G1 X81.673 Y103.717 E-.24069
;WIPE_END
G1 E-1.01862 F3600
G1 X85.338 Y101.797 F9000
G1 E5 F2400
;WIDTH:0.650098
G1 F1200
G1 X83.944 Y101.998 E.07111
;WIDTH:0.619274
G1 X82.549 Y102.2 E.06755
;WIDTH:0.603762
G1 X82.352 Y102.238 E.00936
G1 X82.352 Y102.238 F9000
G1 X81.673 Y103.717
;WIDTH:0.631758
G1 F1200
G1 X81.734 Y103.8 E.00504
;WIDTH:0.589407
G1 X81.794 Y103.883 E.00465
;WIDTH:0.547055
G1 X81.854 Y103.966 E.00429
;WIDTH:0.504703
G1 X81.915 Y104.048 E.00392
;WIDTH:0.462351
G1 X81.975 Y104.131 E.00357
;WIDTH:0.419999
G1 X82.357 Y104.412 E.01487
G1 X82.706 Y104.479 E.01114
G1 X105.063 Y104.479 E.70099
G1 X105.063 Y109.196 E.1479
M73 P1 R94
G1 X105.063 Y130.521 E.66863
G1 X82.706 Y130.521 E.70099
G1 X82.357 Y130.588 E.01114
G1 X81.975 Y130.869 E.01487
;WIDTH:0.469569
G1 X81.898 Y131 E.00539
;WIDTH:0.519139
G1 X81.821 Y131.132 E.00605
;WIDTH:0.568709
G1 X81.744 Y131.263 E.00664
;WIDTH:0.618278
G1 X81.667 Y131.395 E.00731
G1 X81.642 Y131.227 E.00813
;WIDTH:0.568709
G1 X81.617 Y131.06 E.00738
;WIDTH:0.519139
G1 X81.592 Y130.892 E.00673
;WIDTH:0.469569
G1 X81.568 Y130.724 E.00602
;WIDTH:0.419999
G1 X81.568 Y104.276 E.82926
;WIDTH:0.462351
G1 X81.589 Y104.164 E.00397
;WIDTH:0.504703
G1 X81.61 Y104.052 E.00438
;WIDTH:0.547055
G1 X81.631 Y103.941 E.00474
;WIDTH:0.589407
G1 X81.652 Y103.829 E.00518
;WIDTH:0.631758
G1 X81.662 Y103.776 E.00264
G1 X81.662 Y103.776 F9000
G1 X82.135 Y103.462
;WIDTH:0.419999
G1 F1200
G1 X82.142 Y103.574 E.00352
G1 X82.268 Y103.893 E.01075
G1 X82.497 Y104.061 E.00891
G1 X82.706 Y104.102 E.00668
G1 X105.44 Y104.102 E.71281
G1 X105.44 Y109.196 E.15972
G1 X105.44 Y130.898 E.68045
G1 X82.706 Y130.898 E.71281
G1 X82.497 Y130.939 E.00668
G1 X82.268 Y131.107 E.00891
G1 X82.142 Y131.426 E.01075
G1 X82.121 Y131.745 E.01002
G1 X82.222 Y132.107 E.01178
G1 X82.61 Y132.343 E.01424
G1 X96.356 Y134.176 E.43481
G1 X96.194 Y135.391 E.03843
G1 X80.934 Y133.016 E.48423
G1 X81.19 Y131.597 E.04521
G1 X81.19 Y104.276 E.85663
G1 X81.181 Y103.299 E.03063
G1 X80.934 Y101.984 E.04195
G1 X96.194 Y99.609 E.48423
G1 X96.356 Y100.824 E.03843
G1 X82.61 Y102.657 E.43481
G1 X82.503 Y102.682 E.00345
G1 X82.222 Y102.893 E.01102
G1 X82.12 Y103.214 E.01056
G1 X82.131 Y103.402 E.0059
G1 X82.131 Y103.402 F9000
G1 X82.521 Y103.436
;TYPE:External perimeter
G1 F1200
G1 X82.56 Y103.655 E.00697
G1 X82.706 Y103.725 E.00508
G1 X105.818 Y103.725 E.72466
G1 X105.818 Y109.196 E.17154
G1 X105.818 Y131.275 E.69227
G1 X82.706 Y131.275 E.72466
G1 X82.56 Y131.345 E.00508
G1 X82.505 Y131.653 E.00981
G1 X82.531 Y131.891 E.00751
G1 X82.66 Y131.969 E.00473
G1 X96.779 Y133.852 E.44661
G1 X96.516 Y135.823 E.06235
G1 X80.491 Y133.328 E.50851
G1 X80.813 Y131.597 E.05521
G1 X80.81 Y103.368 E.8851
G1 X80.491 Y101.672 E.05411
G1 X96.516 Y99.177 E.50851
G1 X96.779 Y101.148 E.06235
G1 X82.66 Y103.031 E.44661
G1 X82.531 Y103.109 E.00473
G1 X82.505 Y103.347 E.00751
G1 X82.51 Y103.377 E.00095
G1 E-3.5 F3600
;WIPE_START
G1 F7200
G1 X82.521 Y103.436 E-.02851
G1 X82.56 Y103.655 E-.10566
G1 X82.706 Y103.725 E-.07691
G1 X85.419 Y103.725 E-1.28892
;WIPE_END
G1 X104.943 Y105.363 F9000
G1 E5 F2400
;TYPE:Solid infill
;WIDTH:0.4207
G1 F1200
G1 X104.349 Y104.769 E.02639
G1 X103.814 Y104.769 E.01681
