; generated by PrusaSlicer 2.9.0 on 2025-01-20 at 17:17:13 UTC

; 

; external perimeters extrusion width = 0.42mm
; perimeters extrusion width = 0.44mm
; infill extrusion width = 0.44mm
; solid infill extrusion width = 0.44mm
; top infill extrusion width = 0.40mm
; support material extrusion width = 0.36mm
; first layer extrusion width = 0.42mm



; Pre-Processed for Cancel-Object support by preprocess_cancellation v0.2.0
; 1 known objects
EXCLUDE_OBJECT_DEFINE NAME=Shape_Box_id_0_copy_0 CENTER=118.303,117.467 POLYGON=[[105.96,105.96],[105.96,129.04],[129.04,129.04],[129.04,105.96]]
M73 P0 R32

; printing object Shape-Box id:0 copy 0
EXCLUDE_OBJECT_START NAME=Shape_Box_id_0_copy_0
; stop printing object Shape-Box id:0 copy 0
EXCLUDE_OBJECT_END NAME=Shape_Box_id_0_copy_0

;TYPE:Custom
START_PRINT EXTRUDER_TEMP=210 BED_TEMP=60
G21 ; set units to millimeters
G90 ; use absolute coordinates
M83 ; use relative distances for extrusion
; Filament gcode
M107
;LAYER_CHANGE
;Z:0.2
;HEIGHT:0.2
G1 E-5 F3600
G1 Z.2 F9000
G1 X103.308 Y102.655
G1 Z.2
G1 E5 F2400
M204 S500
;TYPE:Skirt/Brim
;WIDTH:0.42
G1 F1200
G1 X105.75 Y101.807 E.08105
G1 X129.25 Y101.807 E.73683
G1 X130.97 Y102.202 E.05533
G1 X132.345 Y103.308 E.05533
G1 X133.193 Y105.75 E.08105
G1 X133.193 Y129.25 E.73683
G1 X132.798 Y130.97 E.05533
G1 X131.692 Y132.345 E.05533
G1 X129.25 Y133.193 E.08105
G1 X105.75 Y133.193 E.73683
G1 X104.03 Y132.798 E.05533
G1 X102.655 Y131.692 E.05533
G1 X101.807 Y129.25 E.08105
G1 X101.807 Y105.75 E.73683
G1 X102.202 Y104.03 E.05533
G1 X103.27 Y102.701 E.05346
G1 X103.27 Y102.701 F9000
G1 X103.576 Y102.965
G1 F1200
G1 X103.675 Y102.851 E.00473
G1 X105.75 Y102.184 E.06834
G1 X129.25 Y102.184 E.73683
G1 X130.88 Y102.579 E.05259
G1 X132.149 Y103.675 E.05257
G1 X132.816 Y105.75 E.06834
G1 X132.816 Y129.25 E.73683
G1 X132.421 Y130.88 E.05259
G1 X131.325 Y132.149 E.05257
G1 X129.25 Y132.816 E.06834
G1 X105.75 Y132.816 E.73683
G1 X104.12 Y132.421 E.05259
G1 X102.851 Y131.325 E.05257
G1 X102.184 Y129.25 E.06834
G1 X102.184 Y105.75 E.73683
G1 X102.579 Y104.12 E.05259
G1 X103.537 Y103.011 E.04595
G1 X103.537 Y103.011 F9000
G1 X103.828 Y103.284
G1 F1200
G1 X104.039 Y103.059 E.00967
G1 X105.75 Y102.561 E.05587
G1 X129.25 Y102.561 E.73683
G1 X130.785 Y102.955 E.04969
G1 X131.941 Y104.039 E.04969
G1 X132.439 Y105.75 E.05587
G1 X132.439 Y129.25 E.73683
G1 X132.045 Y130.785 E.04969
G1 X130.961 Y131.941 E.04969
G1 X129.25 Y132.439 E.05587
G1 X105.75 Y132.439 E.73683
G1 X104.215 Y132.045 E.04969
G1 X103.059 Y130.961 E.04969
G1 X102.561 Y129.25 E.05587
G1 X102.561 Y105.75 E.73683
G1 X102.955 Y104.215 E.04969
G1 X103.787 Y103.328 E.03813
G1 E-3.5 F3600
;WIPE_START
G1 F7200
G1 X103.828 Y103.284 E-.02857
G1 X104.039 Y103.059 E-.14652
G1 X105.75 Y102.561 E-.84645
G1 X106.757 Y102.561 E-.47846
;WIPE_END
; printing object Shape-Box id:0 copy 0
EXCLUDE_OBJECT_START NAME=Shape_Box_id_0_copy_0
G1 X128.186 Y128.186 F9000
G1 E5 F2400
M73 P1 R32
;TYPE:Perimeter
;WIDTH:0.419999
G1 F1200
G1 X106.814 Y128.186 E.6701
G1 X106.814 Y106.814 E.6701
G1 X128.186 Y106.814 E.6701
G1 X128.186 Y117.5 E.33505
G1 X128.186 Y128.126 E.33317
G1 X128.186 Y128.126 F9000
G1 X128.563 Y128.563
G1 F1200
G1 X106.437 Y128.563 E.69374
G1 X106.437 Y106.437 E.69374
G1 X128.563 Y106.437 E.69374
G1 X128.563 Y117.5 E.34687
G1 X128.563 Y128.503 E.34499
G1 X128.94 Y128.94 F9000
;TYPE:External perimeter
G1 F1200
G1 X106.06 Y128.94 E.71739
G1 X106.06 Y106.06 E.71739
G1 X128.94 Y106.06 E.71739
G1 X128.94 Y117.5 E.35869
M73 P1 R31
G1 X128.94 Y128.88 E.35681
G1 E-3.5 F3600
;WIPE_START
G1 F7200
G1 X128.94 Y128.94 E-.0285
G1 X125.842 Y128.94 E-1.4715
;WIPE_END
G1 X128.065 Y107.701 F9000
G1 E5 F2400
;TYPE:Solid infill
;WIDTH:0.421858
G1 F1200
G1 X127.469 Y107.105 E.02656
G1 X126.933 Y107.105 E.01689
G1 X127.895 Y108.067 E.04287
G1 X127.895 Y108.603 E.01689
G1 X126.397 Y107.105 E.06675
G1 X125.861 Y107.105 E.01689
G1 X127.895 Y109.139 E.09064
G1 X127.895 Y109.675 E.01689
G1 X125.325 Y107.105 E.11452
G1 X124.789 Y107.105 E.01689
G1 X127.895 Y110.211 E.1384
G1 X127.895 Y110.747 E.01689
G1 X124.253 Y107.105 E.16229
G1 X123.717 Y107.105 E.01689
G1 X127.895 Y111.283 E.18617
G1 X127.895 Y111.819 E.01689
G1 X123.181 Y107.105 E.21006
G1 X122.646 Y107.105 E.01686
G1 X127.895 Y112.354 E.2339
G1 X127.895 Y112.89 E.01689
G1 X122.11 Y107.105 E.25778
G1 X121.574 Y107.105 E.01689
G1 X127.895 Y113.426 E.28167
G1 X127.895 Y113.962 E.01689
G1 X121.038 Y107.105 E.30555
G1 X120.502 Y107.105 E.01689
G1 X127.895 Y114.498 E.32943
G1 X127.895 Y115.034 E.01689
G1 X119.966 Y107.105 E.35332
G1 X119.43 Y107.105 E.01689
M73 P2 R31
G1 X127.895 Y115.57 E.3772
G1 X127.895 Y116.106 E.01689
G1 X118.894 Y107.105 E.40109
G1 X118.358 Y107.105 E.01689
G1 X127.895 Y116.642 E.42497
G1 X127.895 Y117.178 E.01689
G1 X117.822 Y107.105 E.44885
G1 X117.287 Y107.105 E.01686
G1 X127.895 Y117.713 E.47269
G1 X127.895 Y118.249 E.01689
G1 X116.751 Y107.105 E.49658
G1 X116.215 Y107.105 E.01689
G1 X127.895 Y118.785 E.52046
G1 X127.895 Y119.321 E.01689
G1 X115.679 Y107.105 E.54435
G1 X115.143 Y107.105 E.01689
G1 X127.895 Y119.857 E.56823
G1 X127.895 Y120.393 E.01689
G1 X114.607 Y107.105 E.59212
G1 X114.071 Y107.105 E.01689
G1 X127.895 Y120.929 E.616
G1 X127.895 Y121.465 E.01689
G1 X113.535 Y107.105 E.63988
G1 X112.999 Y107.105 E.01689
G1 X127.895 Y122.001 E.66377
G1 X127.895 Y122.537 E.01689
G1 X112.463 Y107.105 E.68765
G1 X111.928 Y107.105 E.01686
G1 X127.895 Y123.072 E.71149
G1 X127.895 Y123.608 E.01689
G1 X111.392 Y107.105 E.73538
G1 X110.856 Y107.105 E.01689
G1 X127.895 Y124.144 E.75926
G1 X127.895 Y124.68 E.01689
G1 X110.32 Y107.105 E.78315
G1 X109.784 Y107.105 E.01689
G1 X127.895 Y125.216 E.80703
G1 X127.895 Y125.752 E.01689
G1 X109.248 Y107.105 E.83091
G1 X108.712 Y107.105 E.01689
M73 P3 R31
G1 X127.895 Y126.288 E.8548
G1 X127.895 Y126.824 E.01689
G1 X108.176 Y107.105 E.87868
G1 X107.64 Y107.105 E.01689
G1 X127.895 Y127.36 E.90257
G1 X127.895 Y127.895 E.01686
G1 X107.105 Y107.105 E.92641
G1 X107.105 Y107.64 E.01686
G1 X127.36 Y127.895 E.90257
G1 X126.824 Y127.895 E.01689
G1 X107.105 Y108.176 E.87868
G1 X107.105 Y108.712 E.01689
G1 X126.288 Y127.895 E.8548
G1 X125.752 Y127.895 E.01689
G1 X107.105 Y109.248 E.83091
G1 X107.105 Y109.784 E.01689
G1 X125.216 Y127.895 E.80703
G1 X124.68 Y127.895 E.01689
G1 X107.105 Y110.32 E.78315
G1 X107.105 Y110.856 E.01689
G1 X124.144 Y127.895 E.75926
G1 X123.608 Y127.895 E.01689
G1 X107.105 Y111.392 E.73538
G1 X107.105 Y111.928 E.01689
G1 X123.072 Y127.895 E.71149
G1 X122.536 Y127.895 E.01689
G1 X107.105 Y112.464 E.68761
G1 X107.105 Y112.999 E.01686
G1 X122.001 Y127.895 E.66377
G1 X121.465 Y127.895 E.01689
M73 P4 R31
G1 X107.105 Y113.535 E.63988
G1 X107.105 Y114.071 E.01689
G1 X120.929 Y127.895 E.616
G1 X120.393 Y127.895 E.01689
G1 X107.105 Y114.607 E.59212
G1 X107.105 Y115.143 E.01689
G1 X119.857 Y127.895 E.56823
G1 X119.321 Y127.895 E.01689
G1 X107.105 Y115.679 E.54435
G1 X107.105 Y116.215 E.01689
G1 X118.785 Y127.895 E.52046
G1 X118.249 Y127.895 E.01689
G1 X107.105 Y116.751 E.49658
G1 X107.105 Y117.287 E.01689
G1 X117.713 Y127.895 E.47269
G1 X117.177 Y127.895 E.01689
G1 X107.105 Y117.823 E.44881
G1 X107.105 Y118.358 E.01686
G1 X116.642 Y127.895 E.42497
G1 X116.106 Y127.895 E.01689
G1 X107.105 Y118.894 E.40109
G1 X107.105 Y119.43 E.01689
G1 X115.57 Y127.895 E.3772
G1 X115.034 Y127.895 E.01689
G1 X107.105 Y119.966 E.35332
G1 X107.105 Y120.502 E.01689
G1 X114.498 Y127.895 E.32943
G1 X113.962 Y127.895 E.01689
G1 X107.105 Y121.038 E.30555
G1 X107.105 Y121.574 E.01689
G1 X113.426 Y127.895 E.28167
G1 X112.89 Y127.895 E.01689
G1 X107.105 Y122.11 E.25778
G1 X107.105 Y122.646 E.01689
M73 P4 R30
G1 X112.354 Y127.895 E.2339
G1 X111.818 Y127.895 E.01689
G1 X107.105 Y123.182 E.21001
G1 X107.105 Y123.717 E.01686
G1 X111.283 Y127.895 E.18617
G1 X110.747 Y127.895 E.01689
G1 X107.105 Y124.253 E.16229
G1 X107.105 Y124.789 E.01689
G1 X110.211 Y127.895 E.1384
G1 X109.675 Y127.895 E.01689
G1 X107.105 Y125.325 E.11452
G1 X107.105 Y125.861 E.01689
G1 X109.139 Y127.895 E.09064
G1 X108.603 Y127.895 E.01689
G1 X107.105 Y126.397 E.06675
G1 X107.105 Y126.933 E.01689
G1 X108.067 Y127.895 E.04287
G1 X107.531 Y127.895 E.01689
G1 X106.935 Y127.299 E.02656
M106 S255
;LAYER_CHANGE
;Z:0.48
;HEIGHT:0.28
;BEFORE_LAYER_CHANGE
G92 E0
;0.48


G1 E-3.5 F3600
;WIPE_START
G1 F7200
G1 X107.531 Y127.895 E-.40036
G1 X108.067 Y127.895 E-.2546
G1 X107.105 Y126.933 E-.64622
G1 X107.105 Y126.514 E-.19882
;WIPE_END
G1 Z.48 F9000
;AFTER_LAYER_CHANGE
;0.48
M104 S205 ; set temperature
G1 X128.29 Y128.29
G1 E5 F2400
;TYPE:Perimeter
;WIDTH:0.44
G1 F3600
G1 X106.71 Y128.29 E.95439
G1 X106.71 Y106.71 E.95439
G1 X128.29 Y106.71 E.95439
G1 X128.29 Y117.5 E.47719
G1 X128.29 Y128.23 E.47454
G1 X128.29 Y128.23 F9000
G1 X128.67 Y128.67
G1 F3600
G1 X106.33 Y128.67 E.988
G1 X106.33 Y106.33 E.988
G1 X128.67 Y106.33 E.988
M73 P5 R30
G1 X128.67 Y117.5 E.494
G1 X128.67 Y128.61 E.49135
G1 X129.04 Y129.04 F9000
;TYPE:External perimeter
;WIDTH:0.42
G1 F1800
G1 X105.96 Y129.04 E.96699
G1 X105.96 Y105.96 E.96699
G1 X129.04 Y105.96 E.96699
G1 X129.04 Y117.5 E.4835
G1 X129.04 Y128.98 E.48098
G1 E-3.5 F3600
;WIPE_START
G1 F7200
G1 X129.04 Y129.04 E-.0285
G1 X125.942 Y129.04 E-1.4715
;WIPE_END
G1 X107.105 Y107.033 F9000
G1 E5 F2400
;TYPE:Solid infill
;WIDTH:0.532175
G1 F3600
G1 X107.064 Y106.991 E.00323
G1 X107.007 Y107.007 E.00325
G1 X106.991 Y107.064 E.00325
G1 X107.033 Y107.105 E.00323
G1 X107.09 Y107.09 E.00324
;WIDTH:0.44
G1 X107.002 Y107.697 E.02713
G1 X107.697 Y107.002 E.04347
G1 X108.234 Y107.002 E.02375
G1 X107.002 Y108.234 E.07705
G1 X107.002 Y108.772 E.02379
G1 X108.772 Y107.002 E.1107
G1 X109.309 Y107.002 E.02375
G1 X107.002 Y109.309 E.14429
G1 X107.002 Y109.846 E.02375
G1 X109.846 Y107.002 E.17788
G1 X110.383 Y107.002 E.02375
G1 X107.002 Y110.383 E.21146
G1 X107.002 Y110.921 E.02379
G1 X110.921 Y107.002 E.24511
G1 X111.458 Y107.002 E.02375
G1 X107.002 Y111.458 E.2787
G1 X107.002 Y111.995 E.02375
G1 X111.995 Y107.002 E.31228
G1 X112.532 Y107.002 E.02375
G1 X107.002 Y112.532 E.34587
G1 X107.002 Y113.07 E.02379
G1 X113.07 Y107.002 E.37952
G1 X113.607 Y107.002 E.02375
G1 X107.002 Y113.607 E.41311
G1 X107.002 Y114.144 E.02375
G1 X114.144 Y107.002 E.44669
G1 X114.682 Y107.002 E.02379
G1 X107.002 Y114.682 E.48034
G1 X107.002 Y115.219 E.02375
G1 X115.219 Y107.002 E.51393
G1 X115.756 Y107.002 E.02375
G1 X107.002 Y115.756 E.54751
G1 X107.002 Y116.293 E.02375
G1 X116.293 Y107.002 E.5811
G1 X116.831 Y107.002 E.02379
G1 X107.002 Y116.831 E.61475
G1 X107.002 Y117.368 E.02375
G1 X117.368 Y107.002 E.64834
G1 X117.905 Y107.002 E.02375
G1 X107.002 Y117.905 E.68192
G1 X107.002 Y118.442 E.02375
G1 X118.442 Y107.002 E.71551
G1 X118.98 Y107.002 E.02379
G1 X107.002 Y118.98 E.74916
G1 X107.002 Y119.517 E.02375
G1 X119.517 Y107.002 E.78274
G1 X120.054 Y107.002 E.02375
G1 X107.002 Y120.054 E.81633
G1 X107.002 Y120.592 E.02379
G1 X120.592 Y107.002 E.84998
G1 X121.129 Y107.002 E.02375
G1 X107.002 Y121.129 E.88357
G1 X107.002 Y121.666 E.02375
G1 X121.666 Y107.002 E.91715
G1 X122.203 Y107.002 E.02375
G1 X107.002 Y122.203 E.95074
G1 X107.002 Y122.741 E.02379
G1 X122.741 Y107.002 E.98439
G1 X123.278 Y107.002 E.02375
G1 X107.002 Y123.278 E1.01797
G1 X107.002 Y123.815 E.02375
G1 X123.815 Y107.002 E1.05156
G1 X124.353 Y107.002 E.02379
G1 X107.002 Y124.353 E1.08521
G1 X107.002 Y124.89 E.02375
G1 X124.89 Y107.002 E1.1188
G1 X125.427 Y107.002 E.02375
G1 X107.002 Y125.427 E1.15238
G1 X107.002 Y125.964 E.02375
G1 X125.964 Y107.002 E1.18597
G1 X126.502 Y107.002 E.02379
G1 X107.002 Y126.502 E1.21962
G1 X107.002 Y127.039 E.02375
G1 X127.039 Y107.002 E1.2532
G1 X127.576 Y107.002 E.02375
G1 X107.002 Y127.576 E1.28679
G1 X106.934 Y128.096 E.02319
;WIDTH:0.400089
G1 X106.863 Y128.077 E.00291
G1 X106.882 Y128.148 E.00291
G1 X106.923 Y128.137 E.00168
;WIDTH:0.44
G1 X107.118 Y127.998 E.01059
G1 X127.998 Y107.118 E1.30593
G1 X128.137 Y106.923 E.01059
M73 P6 R30
;WIDTH:0.400089
G1 X128.096 Y106.934 E.00168
G1 X128.077 Y106.863 E.00291
G1 X128.148 Y106.882 E.00291
G1 X128.148 Y106.882 F9000
G1 X127.998 Y107.655
;WIDTH:0.44
G1 F3600
G1 X107.655 Y127.998 E1.27234
G1 X108.193 Y127.998 E.02379
G1 X127.998 Y108.193 E1.23869
G1 X127.998 Y108.73 E.02375
G1 X108.73 Y127.998 E1.20511
G1 X109.267 Y127.998 E.02375
G1 X127.998 Y109.267 E1.17152
G1 X127.998 Y109.805 E.02379
G1 X109.805 Y127.998 E1.13787
G1 X110.342 Y127.998 E.02375
G1 X127.998 Y110.342 E1.10429
G1 X127.998 Y110.879 E.02375
G1 X110.879 Y127.998 E1.0707
G1 X111.416 Y127.998 E.02375
G1 X127.998 Y111.416 E1.03711
G1 X127.998 Y111.954 E.02379
G1 X111.954 Y127.998 E1.00346
G1 X112.491 Y127.998 E.02375
G1 X127.998 Y112.491 E.96988
G1 X127.998 Y113.028 E.02375
G1 X113.028 Y127.998 E.93629
G1 X113.565 Y127.998 E.02375
G1 X127.998 Y113.565 E.9027
G1 X127.998 Y114.103 E.02379
G1 X114.103 Y127.998 E.86906
G1 X114.64 Y127.998 E.02375
G1 X127.998 Y114.64 E.83547
G1 X127.998 Y115.177 E.02375
G1 X115.177 Y127.998 E.80188
G1 X115.715 Y127.998 E.02379
G1 X127.998 Y115.715 E.76823
G1 X127.998 Y116.252 E.02375
G1 X116.252 Y127.998 E.73465
G1 X116.789 Y127.998 E.02375
G1 X127.998 Y116.789 E.70106
G1 X127.998 Y117.326 E.02375
G1 X117.326 Y127.998 E.66747
G1 X117.864 Y127.998 E.02379
G1 X127.998 Y117.864 E.63383
G1 X127.998 Y118.401 E.02375
G1 X118.401 Y127.998 E.60024
G1 X118.938 Y127.998 E.02375
G1 X127.998 Y118.938 E.56665
G1 X127.998 Y119.475 E.02375
G1 X119.475 Y127.998 E.53307
G1 X120.013 Y127.998 E.02379
G1 X127.998 Y120.013 E.49942
G1 X127.998 Y120.55 E.02375
G1 X120.55 Y127.998 E.46583
G1 X121.087 Y127.998 E.02375
G1 X127.998 Y121.087 E.43224
G1 X127.998 Y121.625 E.02379
G1 X121.625 Y127.998 E.3986
G1 X122.162 Y127.998 E.02375
G1 X127.998 Y122.162 E.36501
G1 X127.998 Y122.699 E.02375
G1 X122.699 Y127.998 E.33142
G1 X123.236 Y127.998 E.02375
G1 X127.998 Y123.236 E.29784
G1 X127.998 Y123.774 E.02379
G1 X123.774 Y127.998 E.26419
G1 X124.311 Y127.998 E.02375
G1 X127.998 Y124.311 E.2306
G1 X127.998 Y124.848 E.02375
G1 X124.848 Y127.998 E.19702
G1 X125.386 Y127.998 E.02379
G1 X127.998 Y125.386 E.16337
G1 X128.201 Y125.766 E.01905
;WIDTH:0.400089
G1 X128.13 Y125.747 E.00291
G1 X128.149 Y125.818 E.00291
G1 X128.19 Y125.807 E.00168
;WIDTH:0.44
G1 X127.998 Y125.923 E.00992
G1 X125.923 Y127.998 E.12978
G1 X125.807 Y128.19 E.00992
;WIDTH:0.400089
G1 X125.766 Y128.201 E.00168
G1 X125.747 Y128.13 E.00291
G1 X125.818 Y128.149 E.00291
G1 E-3.5
;WIPE_START
G1 F7200
G1 X125.747 Y128.13 E-.03491
G1 X125.766 Y128.201 E-.03491
G1 X125.807 Y128.19 E-.02016
G1 X125.923 Y127.998 E-.10655
G1 X127.863 Y126.057 E-1.30347
;WIPE_END
G1 X127.863 Y126.594 F9000
G1 E5 F2400
;WIDTH:0.44
G1 F3600
G1 X126.46 Y127.998 E.08778
G1 X127.998 Y127.998 E.06802
G1 X127.998 Y126.46 E.06802
G1 X127.998 Y126.46 F9000
G1 X127.61 Y127.53
;WIDTH:0.58086
G1 F3600
G1 X127.564 Y127.484 E.00394
G1 X127.501 Y127.501 E.00396
G1 X127.484 Y127.564 E.00396
G1 X127.53 Y127.61 E.00394
G1 X127.593 Y127.593 E.00396
;LAYER_CHANGE
;Z:0.76
;HEIGHT:0.28
;BEFORE_LAYER_CHANGE
G92 E0
;0.76


G1 E-3.5 F3600
;WIPE_START
G1 F7200
G1 X127.53 Y127.61 E-.031
G1 X127.484 Y127.564 E-.0309
G1 X127.501 Y127.501 E-.031
G1 X127.564 Y127.484 E-.031
G1 X127.61 Y127.53 E-.0309
;WIPE_END
G1 E-1.3452 F3600
G1 Z.76 F9000
;AFTER_LAYER_CHANGE
;0.76
G1 X128.29 Y128.29
G1 E5 F2400
;TYPE:Perimeter
;WIDTH:0.44
G1 F3600
G1 X106.71 Y128.29 E.95439
G1 X106.71 Y106.71 E.95439
G1 X128.29 Y106.71 E.95439
G1 X128.29 Y117.5 E.47719
G1 X128.29 Y128.23 E.47454
G1 X128.29 Y128.23 F9000
G1 X128.67 Y128.67
G1 F3600
G1 X106.33 Y128.67 E.988
G1 X106.33 Y106.33 E.988
G1 X128.67 Y106.33 E.988
G1 X128.67 Y117.5 E.494
G1 X128.67 Y128.61 E.49135
G1 X129.04 Y129.04 F9000
;TYPE:External perimeter
;WIDTH:0.42
G1 F1800
G1 X105.96 Y129.04 E.96699
G1 X105.96 Y105.96 E.96699
G1 X129.04 Y105.96 E.96699
M73 P7 R30
G1 X129.04 Y117.5 E.4835
G1 X129.04 Y128.98 E.48098
G1 E-3.5 F3600
;WIPE_START
G1 F7200
G1 X129.04 Y129.04 E-.0285
G1 X125.942 Y129.04 E-1.4715
;WIPE_END
G1 X107.033 Y127.895 F9000
G1 E5 F2400
;TYPE:Solid infill
;WIDTH:0.532175
G1 F3600
G1 X106.991 Y127.936 E.00323
